;FLAVOR:Marlin
;TIME:31
;Filament used: 0.00813563m
;Layer height: 0.1
;MINX:109.07
;MINY:100.07
;MINZ:0.27
;MAXX:123.93
;MAXY:114.93
;MAXZ:0.97
;Generated with Cura_SteamEngine master
M140 S60
M105
M190 S60
M104 S205
M105
M109 S205
M82 ;absolute extrusion mode

G92 E0
G92 E0
G1 F1500 E-6.5
;LAYER_COUNT:8
;LAYER:0
M107
M204 S625
M205 X6 Y6
G0 F4285.7 X110.94 Y102.265 Z0.27
M204 S500
M205 X5 Y5
;TYPE:SKIRT
G1 F1500 E0
G1 F1200 X111.477 Y101.75 E0.01323
G1 X112.066 Y101.295 E0.02646
G1 X112.7 Y100.906 E0.03968
G1 X113.373 Y100.587 E0.05292
G1 X114.076 Y100.342 E0.06615
G1 X114.801 Y100.174 E0.07938
G1 X115.54 Y100.085 E0.09261
G1 X116 Y100.07 E0.10079
G1 X117 Y100.07 E0.11857
G1 X117.743 Y100.11 E0.1318
G1 X118.478 Y100.229 E0.14503
G1 X119.196 Y100.427 E0.15827
G1 X119.888 Y100.7 E0.17149
G1 X120.547 Y101.046 E0.18473
G1 X121.165 Y101.461 E0.19796
G1 X121.735 Y101.94 E0.21119
G1 X122.25 Y102.477 E0.22442
G1 X122.705 Y103.066 E0.23765
G1 X123.094 Y103.7 E0.25087
G1 X123.413 Y104.373 E0.26411
G1 X123.658 Y105.076 E0.27734
G1 X123.826 Y105.801 E0.29057
G1 X123.915 Y106.54 E0.3038
G1 X123.93 Y107 E0.31199
G1 X123.93 Y108 E0.32976
G1 X123.89 Y108.743 E0.34299
G1 X123.771 Y109.478 E0.35622
G1 X123.573 Y110.196 E0.36946
G1 X123.3 Y110.888 E0.38269
G1 X122.954 Y111.547 E0.39592
G1 X122.539 Y112.165 E0.40915
G1 X122.06 Y112.735 E0.42239
G1 X121.523 Y113.25 E0.43561
G1 X120.934 Y113.705 E0.44884
G1 X120.3 Y114.094 E0.46206
G1 X119.627 Y114.413 E0.4753
G1 X118.924 Y114.658 E0.48854
G1 X118.199 Y114.826 E0.50177
G1 X117.46 Y114.915 E0.515
G1 X117 Y114.93 E0.52318
G1 X116 Y114.93 E0.54095
G1 X115.257 Y114.89 E0.55418
G1 X114.522 Y114.771 E0.56742
G1 X113.804 Y114.573 E0.58066
G1 X113.112 Y114.3 E0.59388
G1 X112.453 Y113.954 E0.60711
G1 X111.835 Y113.539 E0.62034
G1 X111.265 Y113.06 E0.63358
G1 X110.75 Y112.523 E0.6468
G1 X110.295 Y111.934 E0.66003
G1 X109.906 Y111.3 E0.67326
G1 X109.587 Y110.627 E0.6865
G1 X109.342 Y109.924 E0.69973
G1 X109.174 Y109.199 E0.71296
G1 X109.085 Y108.46 E0.72619
G1 X109.07 Y108 E0.73437
G1 X109.07 Y107 E0.75215
G1 X109.11 Y106.257 E0.76537
G1 X109.229 Y105.522 E0.77861
G1 X109.427 Y104.804 E0.79185
G1 X109.7 Y104.112 E0.80507
G1 X110.046 Y103.453 E0.8183
G1 X110.461 Y102.835 E0.83154
G1 X110.94 Y102.265 E0.84477
M204 S625
M205 X6 Y6
G0 F4285.7 X111.354 Y102.44
M204 S500
M205 X5 Y5
G1 F1200 X111.887 Y101.954 E0.85759
G1 X112.471 Y101.53 E0.87042
G1 X113.098 Y101.173 E0.88325
G1 X113.76 Y100.887 E0.89607
G1 X114.45 Y100.677 E0.90889
G1 X115.159 Y100.545 E0.92171
G1 X116 Y100.49 E0.93669
G1 X117 Y100.49 E0.95446
G1 X117.72 Y100.53 E0.96728
G1 X118.432 Y100.649 E0.98011
G1 X119.126 Y100.847 E0.99294
G1 X119.793 Y101.12 E1.00575
G1 X120.427 Y101.465 E1.01859
G1 X121.018 Y101.878 E1.0314
G1 X121.56 Y102.354 E1.04422
G1 X122.046 Y102.887 E1.05705
G1 X122.47 Y103.471 E1.06987
G1 X122.827 Y104.098 E1.0827
G1 X123.113 Y104.76 E1.09552
G1 X123.323 Y105.45 E1.10834
G1 X123.455 Y106.159 E1.12116
G1 X123.51 Y107 E1.13614
G1 X123.51 Y108 E1.15392
G1 X123.47 Y108.72 E1.16674
G1 X123.351 Y109.432 E1.17957
G1 X123.153 Y110.126 E1.1924
G1 X122.88 Y110.793 E1.20521
G1 X122.535 Y111.427 E1.21804
G1 X122.122 Y112.018 E1.23086
G1 X121.646 Y112.56 E1.24368
G1 X121.113 Y113.046 E1.2565
G1 X120.529 Y113.47 E1.26933
G1 X119.902 Y113.827 E1.28215
G1 X119.24 Y114.113 E1.29497
G1 X118.55 Y114.323 E1.30779
G1 X117.841 Y114.455 E1.32061
G1 X117 Y114.51 E1.3356
G1 X116 Y114.51 E1.35337
G1 X115.28 Y114.47 E1.36619
G1 X114.568 Y114.351 E1.37902
G1 X113.874 Y114.153 E1.39185
G1 X113.207 Y113.88 E1.40466
G1 X112.573 Y113.535 E1.41749
G1 X111.982 Y113.122 E1.43031
G1 X111.44 Y112.646 E1.44313
G1 X110.954 Y112.113 E1.45595
G1 X110.53 Y111.529 E1.46878
G1 X110.173 Y110.902 E1.48161
G1 X109.887 Y110.24 E1.49443
G1 X109.677 Y109.55 E1.50725
G1 X109.545 Y108.841 E1.52007
G1 X109.49 Y108 E1.53505
G1 X109.49 Y107 E1.55282
G1 X109.53 Y106.28 E1.56564
G1 X109.649 Y105.568 E1.57848
G1 X109.847 Y104.874 E1.5913
G1 X110.12 Y104.207 E1.60412
G1 X110.465 Y103.573 E1.61695
G1 X110.878 Y102.982 E1.62976
G1 X111.354 Y102.44 E1.64259
M204 S625
M205 X6 Y6
G0 F4285.7 X111.768 Y102.621
M204 S500
M205 X5 Y5
G1 F1200 X112.296 Y102.166 E1.65497
G1 X112.873 Y101.774 E1.66737
G1 X113.492 Y101.451 E1.67979
G1 X114.143 Y101.2 E1.69219
G1 X114.819 Y101.026 E1.7046
G1 X115.51 Y100.93 E1.717
G1 X116 Y100.91 E1.72572
G1 X117 Y100.91 E1.74349
G1 X117.697 Y100.95 E1.7559
G1 X118.384 Y101.069 E1.7683
G1 X119.053 Y101.267 E1.7807
G1 X119.696 Y101.539 E1.79311
G1 X120.302 Y101.883 E1.80549
G1 X120.866 Y102.295 E1.81791
G1 X121.379 Y102.768 E1.83031
G1 X121.834 Y103.296 E1.8427
G1 X122.226 Y103.873 E1.8551
G1 X122.549 Y104.492 E1.86752
G1 X122.8 Y105.143 E1.87992
G1 X122.974 Y105.819 E1.89233
G1 X123.07 Y106.51 E1.90473
G1 X123.09 Y107 E1.91344
G1 X123.09 Y108 E1.93122
G1 X123.05 Y108.697 E1.94363
G1 X122.931 Y109.384 E1.95602
G1 X122.733 Y110.053 E1.96843
G1 X122.461 Y110.696 E1.98084
G1 X122.117 Y111.302 E1.99322
G1 X121.705 Y111.866 E2.00564
G1 X121.232 Y112.379 E2.01804
G1 X120.704 Y112.834 E2.03043
G1 X120.127 Y113.226 E2.04283
G1 X119.508 Y113.549 E2.05524
G1 X118.857 Y113.8 E2.06765
G1 X118.181 Y113.974 E2.08006
G1 X117.49 Y114.07 E2.09246
G1 X117 Y114.09 E2.10117
G1 X116 Y114.09 E2.11895
G1 X115.303 Y114.05 E2.13136
G1 X114.616 Y113.931 E2.14375
G1 X113.947 Y113.733 E2.15616
G1 X113.304 Y113.461 E2.16857
G1 X112.698 Y113.117 E2.18095
G1 X112.134 Y112.705 E2.19337
G1 X111.621 Y112.232 E2.20577
G1 X111.166 Y111.704 E2.21816
G1 X110.774 Y111.127 E2.23056
G1 X110.451 Y110.508 E2.24297
G1 X110.2 Y109.857 E2.25538
G1 X110.026 Y109.181 E2.26779
G1 X109.93 Y108.49 E2.28019
G1 X109.91 Y108 E2.2889
G1 X109.91 Y107 E2.30668
G1 X109.95 Y106.303 E2.31909
G1 X110.069 Y105.616 E2.33148
G1 X110.267 Y104.947 E2.34389
G1 X110.539 Y104.304 E2.3563
G1 X110.883 Y103.698 E2.36868
G1 X111.295 Y103.134 E2.3811
G1 X111.768 Y102.621 E2.3935
M204 S625
M205 X6 Y6
G0 F4285.7 X111.71 Y103.292
M204 S500
M205 X5 Y5
G1 F1200 X112.18 Y102.81 E2.40547
G1 X112.704 Y102.387 E2.41744
G1 X113.274 Y102.028 E2.42942
G1 X113.882 Y101.74 E2.44137
G1 X114.52 Y101.526 E2.45334
G1 X115.18 Y101.39 E2.46531
G1 X116 Y101.33 E2.47993
G1 X117 Y101.33 E2.49771
G1 X117.672 Y101.37 E2.50967
G1 X118.335 Y101.489 E2.52165
G1 X118.978 Y101.686 E2.5336
G1 X119.594 Y101.958 E2.54557
G1 X120.173 Y102.301 E2.55753
G1 X120.708 Y102.71 E2.5695
G1 X121.19 Y103.18 E2.58147
G1 X121.613 Y103.704 E2.59344
G1 X121.972 Y104.274 E2.60542
G1 X122.26 Y104.882 E2.61738
G1 X122.474 Y105.52 E2.62934
G1 X122.61 Y106.18 E2.64132
G1 X122.67 Y107 E2.65593
G1 X122.67 Y108 E2.67371
G1 X122.63 Y108.672 E2.68567
G1 X122.511 Y109.335 E2.69765
G1 X122.314 Y109.978 E2.7096
G1 X122.042 Y110.594 E2.72157
G1 X121.699 Y111.173 E2.73354
G1 X121.29 Y111.708 E2.74551
G1 X120.82 Y112.19 E2.75747
G1 X120.296 Y112.613 E2.76944
G1 X119.726 Y112.972 E2.78142
G1 X119.118 Y113.26 E2.79338
G1 X118.48 Y113.474 E2.80534
G1 X117.82 Y113.61 E2.81732
G1 X117 Y113.67 E2.83193
G1 X116 Y113.67 E2.84971
G1 X115.328 Y113.63 E2.86168
G1 X114.665 Y113.511 E2.87365
G1 X114.022 Y113.314 E2.8856
G1 X113.406 Y113.042 E2.89757
G1 X112.827 Y112.699 E2.90954
G1 X112.292 Y112.29 E2.92151
G1 X111.81 Y111.82 E2.93347
G1 X111.387 Y111.296 E2.94545
G1 X111.028 Y110.726 E2.95742
G1 X110.74 Y110.118 E2.96938
G1 X110.526 Y109.48 E2.98134
G1 X110.39 Y108.82 E2.99332
G1 X110.33 Y108 E3.00794
G1 X110.33 Y107 E3.02571
G1 X110.37 Y106.328 E3.03768
G1 X110.489 Y105.665 E3.04965
G1 X110.686 Y105.022 E3.06161
G1 X110.958 Y104.406 E3.07358
G1 X111.301 Y103.827 E3.08554
G1 X111.71 Y103.292 E3.09751
M204 S625
M205 X6 Y6
G0 F4285.7 X112.126 Y103.457
M204 S500
M205 X5 Y5
G1 F1200 X112.592 Y103.007 E3.10902
G1 X113.109 Y102.618 E3.12053
G1 X113.671 Y102.295 E3.13205
G1 X114.268 Y102.044 E3.14356
G1 X114.892 Y101.868 E3.15509
G1 X115.532 Y101.771 E3.16659
G1 X116 Y101.75 E3.17492
G1 X117 Y101.75 E3.1927
G1 X117.647 Y101.79 E3.20422
G1 X118.283 Y101.909 E3.21572
G1 X118.9 Y102.106 E3.22723
G1 X119.489 Y102.377 E3.23876
G1 X120.039 Y102.719 E3.25027
G1 X120.543 Y103.126 E3.26179
G1 X120.993 Y103.592 E3.2733
G1 X121.382 Y104.109 E3.2848
G1 X121.705 Y104.671 E3.29633
G1 X121.956 Y105.268 E3.30784
G1 X122.132 Y105.892 E3.31936
G1 X122.229 Y106.532 E3.33087
G1 X122.25 Y107 E3.3392
G1 X122.25 Y108 E3.35697
G1 X122.21 Y108.647 E3.3685
G1 X122.091 Y109.283 E3.38
G1 X121.894 Y109.9 E3.39151
G1 X121.623 Y110.489 E3.40304
G1 X121.281 Y111.039 E3.41455
G1 X120.874 Y111.543 E3.42606
G1 X120.408 Y111.993 E3.43758
G1 X119.891 Y112.382 E3.44908
G1 X119.329 Y112.705 E3.4606
G1 X118.732 Y112.956 E3.47212
G1 X118.108 Y113.132 E3.48364
G1 X117.468 Y113.229 E3.49515
G1 X117 Y113.25 E3.50347
G1 X116 Y113.25 E3.52125
G1 X115.353 Y113.21 E3.53277
G1 X114.717 Y113.091 E3.54428
G1 X114.1 Y112.894 E3.55579
G1 X113.511 Y112.623 E3.56731
G1 X112.961 Y112.281 E3.57883
G1 X112.457 Y111.874 E3.59034
G1 X112.007 Y111.408 E3.60186
G1 X111.618 Y110.891 E3.61336
G1 X111.295 Y110.329 E3.62488
G1 X111.044 Y109.732 E3.63639
G1 X110.868 Y109.108 E3.64792
G1 X110.771 Y108.468 E3.65942
G1 X110.75 Y108 E3.66775
G1 X110.75 Y107 E3.68553
G1 X110.79 Y106.353 E3.69705
G1 X110.909 Y105.717 E3.70855
G1 X111.106 Y105.1 E3.72007
G1 X111.377 Y104.511 E3.73159
G1 X111.719 Y103.961 E3.7431
G1 X112.126 Y103.457 E3.75462
M204 S625
M205 X6 Y6
G0 F4285.7 X112.54 Y103.63
M204 S500
M205 X5 Y5
G1 F1200 X113.002 Y103.213 E3.76568
G1 X113.512 Y102.86 E3.77671
G1 X114.064 Y102.575 E3.78775
G1 X114.649 Y102.363 E3.79881
G1 X115.255 Y102.228 E3.80985
G1 X116 Y102.17 E3.82313
G1 X117 Y102.17 E3.84091
G1 X117.62 Y102.21 E3.85195
G1 X118.23 Y102.329 E3.863
G1 X118.819 Y102.526 E3.87404
G1 X119.378 Y102.796 E3.88507
G1 X119.898 Y103.136 E3.89612
G1 X120.37 Y103.54 E3.90716
G1 X120.787 Y104.002 E3.91823
G1 X121.14 Y104.512 E3.92925
G1 X121.425 Y105.064 E3.94029
G1 X121.637 Y105.649 E3.95135
G1 X121.772 Y106.255 E3.96239
G1 X121.83 Y107 E3.97567
G1 X121.83 Y108 E3.99345
G1 X121.79 Y108.62 E4.00449
G1 X121.671 Y109.23 E4.01554
G1 X121.474 Y109.819 E4.02658
G1 X121.204 Y110.378 E4.03762
G1 X120.864 Y110.898 E4.04866
G1 X120.46 Y111.37 E4.05971
G1 X119.998 Y111.787 E4.07077
G1 X119.488 Y112.14 E4.08179
G1 X118.936 Y112.425 E4.09284
G1 X118.351 Y112.637 E4.1039
G1 X117.745 Y112.772 E4.11493
G1 X117 Y112.83 E4.12822
G1 X116 Y112.83 E4.14599
G1 X115.38 Y112.79 E4.15704
G1 X114.77 Y112.671 E4.16809
G1 X114.181 Y112.474 E4.17913
G1 X113.622 Y112.204 E4.19016
G1 X113.102 Y111.864 E4.2012
G1 X112.63 Y111.46 E4.21225
G1 X112.213 Y110.998 E4.22331
G1 X111.86 Y110.488 E4.23434
G1 X111.575 Y109.936 E4.24538
G1 X111.363 Y109.351 E4.25644
G1 X111.228 Y108.745 E4.26748
G1 X111.17 Y108 E4.28076
G1 X111.17 Y107 E4.29854
G1 X111.21 Y106.38 E4.30958
G1 X111.329 Y105.77 E4.32063
G1 X111.526 Y105.181 E4.33167
G1 X111.796 Y104.622 E4.3427
G1 X112.136 Y104.102 E4.35375
G1 X112.54 Y103.63 E4.36479
M204 S625
M205 X6 Y6
G0 F4285.7 X112.954 Y103.811
M204 S500
M205 X5 Y5
G1 F1200 X113.41 Y103.431 E4.37534
G1 X113.913 Y103.115 E4.3859
G1 X114.453 Y102.87 E4.39644
G1 X115.022 Y102.7 E4.407
G1 X115.608 Y102.607 E4.41755
G1 X116 Y102.59 E4.42452
G1 X117 Y102.59 E4.4423
G1 X117.592 Y102.63 E4.45284
G1 X118.174 Y102.749 E4.4634
G1 X118.734 Y102.945 E4.47395
G1 X119.263 Y103.215 E4.48451
G1 X119.751 Y103.553 E4.49506
G1 X120.189 Y103.954 E4.50562
G1 X120.569 Y104.41 E4.51617
G1 X120.885 Y104.913 E4.52673
G1 X121.13 Y105.453 E4.53727
G1 X121.3 Y106.022 E4.54782
G1 X121.393 Y106.608 E4.55837
G1 X121.41 Y107 E4.56535
G1 X121.41 Y108 E4.58312
G1 X121.37 Y108.592 E4.59367
G1 X121.251 Y109.174 E4.60423
G1 X121.055 Y109.734 E4.61478
G1 X120.785 Y110.263 E4.62533
G1 X120.447 Y110.751 E4.63589
G1 X120.046 Y111.189 E4.64644
G1 X119.59 Y111.569 E4.65699
G1 X119.087 Y111.885 E4.66755
G1 X118.547 Y112.13 E4.67809
G1 X117.978 Y112.3 E4.68865
G1 X117.392 Y112.393 E4.6992
G1 X117 Y112.41 E4.70617
G1 X116 Y112.41 E4.72395
G1 X115.408 Y112.37 E4.73449
G1 X114.826 Y112.251 E4.74505
G1 X114.266 Y112.055 E4.7556
G1 X113.737 Y111.785 E4.76616
G1 X113.249 Y111.447 E4.77671
G1 X112.811 Y111.046 E4.78727
G1 X112.431 Y110.59 E4.79782
G1 X112.115 Y110.087 E4.80838
G1 X111.87 Y109.547 E4.81892
G1 X111.7 Y108.978 E4.82947
G1 X111.607 Y108.392 E4.84002
G1 X111.59 Y108 E4.847
G1 X111.59 Y107 E4.86477
G1 X111.63 Y106.408 E4.87532
G1 X111.749 Y105.826 E4.88588
G1 X111.945 Y105.266 E4.89643
G1 X112.215 Y104.737 E4.90698
G1 X112.553 Y104.249 E4.91754
G1 X112.954 Y103.811 E4.92809
M204 S625
M205 X6 Y6
G0 F4285.7 X112.969 Y104.405
M204 S500
M205 X5 Y5
G1 F1200 X113.366 Y104.003 E4.93814
G1 X113.815 Y103.661 E4.94817
G1 X114.309 Y103.386 E4.95822
G1 X114.836 Y103.184 E4.96825
G1 X115.386 Y103.058 E4.97828
G1 X116 Y103.01 E4.98923
G1 X117 Y103.01 E5.00701
G1 X117.563 Y103.05 E5.01704
G1 X118.115 Y103.169 E5.02708
G1 X118.645 Y103.365 E5.03712
G1 X119.141 Y103.633 E5.04714
G1 X119.595 Y103.969 E5.05718
G1 X119.997 Y104.366 E5.06723
G1 X120.339 Y104.815 E5.07726
G1 X120.614 Y105.309 E5.08731
G1 X120.816 Y105.836 E5.09734
G1 X120.942 Y106.386 E5.10737
G1 X120.99 Y107 E5.11832
G1 X120.99 Y108 E5.1361
G1 X120.95 Y108.563 E5.14613
G1 X120.831 Y109.115 E5.15617
G1 X120.635 Y109.645 E5.16621
G1 X120.367 Y110.141 E5.17623
G1 X120.031 Y110.595 E5.18627
G1 X119.634 Y110.997 E5.19632
G1 X119.185 Y111.339 E5.20635
G1 X118.691 Y111.614 E5.2164
G1 X118.164 Y111.816 E5.22643
G1 X117.614 Y111.942 E5.23646
G1 X117 Y111.99 E5.24741
G1 X116 Y111.99 E5.26519
G1 X115.437 Y111.95 E5.27522
G1 X114.885 Y111.831 E5.28526
G1 X114.355 Y111.635 E5.2953
G1 X113.859 Y111.367 E5.30532
G1 X113.405 Y111.031 E5.31536
G1 X113.003 Y110.634 E5.32541
G1 X112.661 Y110.185 E5.33544
G1 X112.386 Y109.691 E5.34549
G1 X112.184 Y109.164 E5.35552
G1 X112.058 Y108.614 E5.36555
G1 X112.01 Y108 E5.3765
G1 X112.01 Y107 E5.39428
G1 X112.05 Y106.437 E5.40431
G1 X112.169 Y105.885 E5.41435
G1 X112.365 Y105.355 E5.42439
G1 X112.633 Y104.859 E5.43441
G1 X112.969 Y104.405 E5.44445
M204 S625
M205 X6 Y6
G0 F4285.7 X113.385 Y104.57
M204 S500
M205 X5 Y5
G1 F1200 X113.776 Y104.207 E5.45394
G1 X114.218 Y103.907 E5.46343
G1 X114.699 Y103.675 E5.47293
G1 X115.21 Y103.519 E5.48242
G1 X116 Y103.43 E5.49656
G1 X117 Y103.43 E5.51433
G1 X117.533 Y103.47 E5.52383
G1 X118.053 Y103.589 E5.53331
G1 X118.55 Y103.784 E5.54281
G1 X119.013 Y104.051 E5.55231
G1 X119.43 Y104.385 E5.5618
G1 X119.793 Y104.776 E5.57129
G1 X120.093 Y105.218 E5.58078
G1 X120.325 Y105.699 E5.59028
G1 X120.481 Y106.21 E5.59977
G1 X120.57 Y107 E5.6139
G1 X120.57 Y108 E5.63168
G1 X120.53 Y108.533 E5.64118
G1 X120.411 Y109.053 E5.65066
G1 X120.216 Y109.55 E5.66015
G1 X119.949 Y110.013 E5.66966
G1 X119.615 Y110.43 E5.67915
G1 X119.224 Y110.793 E5.68864
G1 X118.782 Y111.093 E5.69813
G1 X118.301 Y111.325 E5.70763
G1 X117.79 Y111.481 E5.71712
G1 X117 Y111.57 E5.73125
G1 X116 Y111.57 E5.74903
G1 X115.467 Y111.53 E5.75853
G1 X114.947 Y111.411 E5.76801
G1 X114.45 Y111.216 E5.7775
G1 X113.987 Y110.949 E5.78701
G1 X113.57 Y110.615 E5.7965
G1 X113.207 Y110.224 E5.80599
G1 X112.907 Y109.782 E5.81548
G1 X112.675 Y109.301 E5.82498
G1 X112.519 Y108.79 E5.83447
G1 X112.43 Y108 E5.8486
G1 X112.43 Y107 E5.86638
G1 X112.47 Y106.467 E5.87588
G1 X112.589 Y105.947 E5.88536
G1 X112.784 Y105.45 E5.89485
G1 X113.051 Y104.987 E5.90436
G1 X113.385 Y104.57 E5.91385
M204 S625
M205 X6 Y6
G0 F4285.7 X113.799 Y104.747
M204 S500
M205 X5 Y5
G1 F1200 X114.184 Y104.426 E5.92276
G1 X114.616 Y104.17 E5.93169
G1 X115.083 Y103.987 E5.94061
G1 X115.572 Y103.879 E5.94951
G1 X116 Y103.85 E5.95713
G1 X117 Y103.85 E5.97491
G1 X117.5 Y103.89 E5.98383
G1 X117.987 Y104.009 E5.99274
G1 X118.45 Y104.203 E6.00166
G1 X118.875 Y104.469 E6.01057
G1 X119.253 Y104.799 E6.01949
G1 X119.574 Y105.184 E6.0284
G1 X119.83 Y105.616 E6.03733
G1 X120.013 Y106.083 E6.04625
G1 X120.121 Y106.572 E6.05515
G1 X120.15 Y107 E6.06277
G1 X120.15 Y108 E6.08055
G1 X120.11 Y108.5 E6.08946
G1 X119.991 Y108.987 E6.09838
G1 X119.797 Y109.45 E6.1073
G1 X119.531 Y109.875 E6.11621
G1 X119.201 Y110.253 E6.12513
G1 X118.816 Y110.574 E6.13404
G1 X118.384 Y110.83 E6.14297
G1 X117.917 Y111.013 E6.15189
