;FLAVOR:Marlin(Volumetric)
;TIME:34
;Filament used: 52.8894mm3, 0mm3
;Layer height: 0.1
;MINX:109.07
;MINY:100.07
;MINZ:0.27
;MAXX:123.93
;MAXY:114.93
;MAXZ:0.97
;Generated with Cura_SteamEngine master
T0
M190 S60
M104 S205
M109 S205
M82 ;absolute extrusion mode

G92 E0
G92 E0
G10
;LAYER_COUNT:8
;LAYER:0
M107
M204 S625
M205 X6 Y6
G0 F4285.7 X110.94 Y102.265 Z0.27
M204 S500
M205 X5 Y5
;TYPE:SKIRT
G11
G1 F1200 X111.477 Y101.75 E0.08437
G1 X112.066 Y101.295 E0.16877
G1 X112.7 Y100.906 E0.25312
G1 X113.373 Y100.587 E0.33758
G1 X114.076 Y100.342 E0.422
G1 X114.801 Y100.174 E0.5064
G1 X115.54 Y100.085 E0.59081
G1 X116 Y100.07 E0.643
G1 X117 Y100.07 E0.7564
G1 X117.743 Y100.11 E0.84078
G1 X118.478 Y100.229 E0.92521
G1 X119.196 Y100.427 E1.00967
G1 X119.888 Y100.7 E1.09403
G1 X120.547 Y101.046 E1.17843
G1 X121.165 Y101.461 E1.26285
G1 X121.735 Y101.94 E1.34728
G1 X122.25 Y102.477 E1.43166
G1 X122.705 Y103.066 E1.51606
G1 X123.094 Y103.7 E1.60041
G1 X123.413 Y104.373 E1.68486
G1 X123.658 Y105.076 E1.76929
G1 X123.826 Y105.801 E1.85368
G1 X123.915 Y106.54 E1.93809
G1 X123.93 Y107 E1.99028
G1 X123.93 Y108 E2.10368
G1 X123.89 Y108.743 E2.18806
G1 X123.771 Y109.478 E2.27249
G1 X123.573 Y110.196 E2.35695
G1 X123.3 Y110.888 E2.44131
G1 X122.954 Y111.547 E2.52572
G1 X122.539 Y112.165 E2.61013
G1 X122.06 Y112.735 E2.69456
G1 X121.523 Y113.25 E2.77894
G1 X120.934 Y113.705 E2.86334
G1 X120.3 Y114.094 E2.94769
G1 X119.627 Y114.413 E3.03215
G1 X118.924 Y114.658 E3.11657
G1 X118.199 Y114.826 E3.20096
G1 X117.46 Y114.915 E3.28537
G1 X117 Y114.93 E3.33756
G1 X116 Y114.93 E3.45096
G1 X115.257 Y114.89 E3.53534
G1 X114.522 Y114.771 E3.61977
G1 X113.804 Y114.573 E3.70424
G1 X113.112 Y114.3 E3.78859
G1 X112.453 Y113.954 E3.873
G1 X111.835 Y113.539 E3.95741
G1 X111.265 Y113.06 E4.04185
G1 X110.75 Y112.523 E4.12622
G1 X110.295 Y111.934 E4.21062
G1 X109.906 Y111.3 E4.29497
G1 X109.587 Y110.627 E4.37943
G1 X109.342 Y109.924 E4.46385
G1 X109.174 Y109.199 E4.54824
G1 X109.085 Y108.46 E4.63265
G1 X109.07 Y108 E4.68484
G1 X109.07 Y107 E4.79824
G1 X109.11 Y106.257 E4.88262
G1 X109.229 Y105.522 E4.96706
G1 X109.427 Y104.804 E5.05152
G1 X109.7 Y104.112 E5.13588
G1 X110.046 Y103.453 E5.22028
G1 X110.461 Y102.835 E5.3047
G1 X110.94 Y102.265 E5.38913
M204 S625
M205 X6 Y6
G0 F4285.7 X111.354 Y102.44
M204 S500
M205 X5 Y5
G1 F1200 X111.887 Y101.954 E5.47092
G1 X112.471 Y101.53 E5.55276
G1 X113.098 Y101.173 E5.63458
G1 X113.76 Y100.887 E5.71636
G1 X114.45 Y100.677 E5.79815
G1 X115.159 Y100.545 E5.87993
G1 X116 Y100.49 E5.9755
G1 X117 Y100.49 E6.0889
G1 X117.72 Y100.53 E6.17068
G1 X118.432 Y100.649 E6.25254
G1 X119.126 Y100.847 E6.33438
G1 X119.793 Y101.12 E6.41611
G1 X120.427 Y101.465 E6.49796
G1 X121.018 Y101.878 E6.57972
G1 X121.56 Y102.354 E6.66152
G1 X122.046 Y102.887 E6.74332
G1 X122.47 Y103.471 E6.82516
G1 X122.827 Y104.098 E6.90698
G1 X123.113 Y104.76 E6.98875
G1 X123.323 Y105.45 E7.07054
G1 X123.455 Y106.159 E7.15232
G1 X123.51 Y107 E7.2479
G1 X123.51 Y108 E7.3613
G1 X123.47 Y108.72 E7.44307
G1 X123.351 Y109.432 E7.52493
G1 X123.153 Y110.126 E7.60677
G1 X122.88 Y110.793 E7.6885
G1 X122.535 Y111.427 E7.77035
G1 X122.122 Y112.018 E7.85211
G1 X121.646 Y112.56 E7.93391
G1 X121.113 Y113.046 E8.01571
G1 X120.529 Y113.47 E8.09755
G1 X119.902 Y113.827 E8.17937
G1 X119.24 Y114.113 E8.26115
G1 X118.55 Y114.323 E8.34294
G1 X117.841 Y114.455 E8.42472
G1 X117 Y114.51 E8.52029
G1 X116 Y114.51 E8.63369
G1 X115.28 Y114.47 E8.71547
G1 X114.568 Y114.351 E8.79733
G1 X113.874 Y114.153 E8.87917
G1 X113.207 Y113.88 E8.96089
G1 X112.573 Y113.535 E9.04275
G1 X111.982 Y113.122 E9.12451
G1 X111.44 Y112.646 E9.20631
G1 X110.954 Y112.113 E9.2881
G1 X110.53 Y111.529 E9.36994
G1 X110.173 Y110.902 E9.45176
G1 X109.887 Y110.24 E9.53354
G1 X109.677 Y109.55 E9.61533
G1 X109.545 Y108.841 E9.69711
G1 X109.49 Y108 E9.79268
G1 X109.49 Y107 E9.90608
G1 X109.53 Y106.28 E9.98786
G1 X109.649 Y105.568 E10.06972
G1 X109.847 Y104.874 E10.15156
G1 X110.12 Y104.207 E10.23329
G1 X110.465 Y103.573 E10.31514
G1 X110.878 Y102.982 E10.3969
G1 X111.354 Y102.44 E10.4787
M204 S625
M205 X6 Y6
G0 F4285.7 X111.768 Y102.621
M204 S500
M205 X5 Y5
G1 F1200 X112.296 Y102.166 E10.55774
G1 X112.873 Y101.774 E10.63684
G1 X113.492 Y101.451 E10.71602
G1 X114.143 Y101.2 E10.79514
G1 X114.819 Y101.026 E10.8743
G1 X115.51 Y100.93 E10.95341
G1 X116 Y100.91 E11.00902
G1 X117 Y100.91 E11.12242
G1 X117.697 Y100.95 E11.20159
G1 X118.384 Y101.069 E11.28066
G1 X119.053 Y101.267 E11.35978
G1 X119.696 Y101.539 E11.43895
G1 X120.302 Y101.883 E11.51797
G1 X120.866 Y102.295 E11.59717
G1 X121.379 Y102.768 E11.6763
G1 X121.834 Y103.296 E11.75534
G1 X122.226 Y103.873 E11.83444
G1 X122.549 Y104.492 E11.91362
G1 X122.8 Y105.143 E11.99274
G1 X122.974 Y105.819 E12.0719
G1 X123.07 Y106.51 E12.15101
G1 X123.09 Y107 E12.20662
G1 X123.09 Y108 E12.32002
G1 X123.05 Y108.697 E12.39919
G1 X122.931 Y109.384 E12.47826
G1 X122.733 Y110.053 E12.55738
G1 X122.461 Y110.696 E12.63655
G1 X122.117 Y111.302 E12.71557
G1 X121.705 Y111.866 E12.79477
G1 X121.232 Y112.379 E12.8739
G1 X120.704 Y112.834 E12.95294
G1 X120.127 Y113.226 E13.03205
G1 X119.508 Y113.549 E13.11122
G1 X118.857 Y113.8 E13.19034
G1 X118.181 Y113.974 E13.2695
G1 X117.49 Y114.07 E13.34861
G1 X117 Y114.09 E13.40422
G1 X116 Y114.09 E13.51762
G1 X115.303 Y114.05 E13.59679
G1 X114.616 Y113.931 E13.67586
G1 X113.947 Y113.733 E13.75498
G1 X113.304 Y113.461 E13.83415
G1 X112.698 Y113.117 E13.91317
G1 X112.134 Y112.705 E13.99237
G1 X111.621 Y112.232 E14.0715
G1 X111.166 Y111.704 E14.15054
G1 X110.774 Y111.127 E14.22965
G1 X110.451 Y110.508 E14.30882
G1 X110.2 Y109.857 E14.38794
G1 X110.026 Y109.181 E14.4671
G1 X109.93 Y108.49 E14.54621
G1 X109.91 Y108 E14.60182
G1 X109.91 Y107 E14.71522
G1 X109.95 Y106.303 E14.79439
G1 X110.069 Y105.616 E14.87346
G1 X110.267 Y104.947 E14.95258
G1 X110.539 Y104.304 E15.03175
G1 X110.883 Y103.698 E15.11077
G1 X111.295 Y103.134 E15.18997
G1 X111.768 Y102.621 E15.2691
M204 S625
M205 X6 Y6
G0 F4285.7 X111.71 Y103.292
M204 S500
M205 X5 Y5
G1 F1200 X112.18 Y102.81 E15.34545
G1 X112.704 Y102.387 E15.42181
G1 X113.274 Y102.028 E15.4982
G1 X113.882 Y101.74 E15.57449
G1 X114.52 Y101.526 E15.6508
G1 X115.18 Y101.39 E15.72722
G1 X116 Y101.33 E15.82046
G1 X117 Y101.33 E15.93386
G1 X117.672 Y101.37 E16.0102
G1 X118.335 Y101.489 E16.08658
G1 X118.978 Y101.686 E16.16284
G1 X119.594 Y101.958 E16.23921
G1 X120.173 Y102.301 E16.31552
G1 X120.708 Y102.71 E16.39189
G1 X121.19 Y103.18 E16.46823
G1 X121.613 Y103.704 E16.5446
G1 X121.972 Y104.274 E16.62099
G1 X122.26 Y104.882 E16.69728
G1 X122.474 Y105.52 E16.77359
G1 X122.61 Y106.18 E16.85001
G1 X122.67 Y107 E16.94324
G1 X122.67 Y108 E17.05664
G1 X122.63 Y108.672 E17.13298
G1 X122.511 Y109.335 E17.20937
G1 X122.314 Y109.978 E17.28563
G1 X122.042 Y110.594 E17.36199
G1 X121.699 Y111.173 E17.43831
G1 X121.29 Y111.708 E17.51467
G1 X120.82 Y112.19 E17.59102
G1 X120.296 Y112.613 E17.66738
G1 X119.726 Y112.972 E17.74377
G1 X119.118 Y113.26 E17.82006
G1 X118.48 Y113.474 E17.89637
G1 X117.82 Y113.61 E17.97279
G1 X117 Y113.67 E18.06603
G1 X116 Y113.67 E18.17943
G1 X115.328 Y113.63 E18.25577
G1 X114.665 Y113.511 E18.33215
G1 X114.022 Y113.314 E18.40841
G1 X113.406 Y113.042 E18.48477
G1 X112.827 Y112.699 E18.56109
G1 X112.292 Y112.29 E18.63746
G1 X111.81 Y111.82 E18.7138
G1 X111.387 Y111.296 E18.79017
G1 X111.028 Y110.726 E18.86656
G1 X110.74 Y110.118 E18.94285
G1 X110.526 Y109.48 E19.01916
G1 X110.39 Y108.82 E19.09557
G1 X110.33 Y108 E19.18881
G1 X110.33 Y107 E19.30221
G1 X110.37 Y106.328 E19.37855
G1 X110.489 Y105.665 E19.45494
G1 X110.686 Y105.022 E19.5312
G1 X110.958 Y104.406 E19.60756
G1 X111.301 Y103.827 E19.68387
G1 X111.71 Y103.292 E19.76024
M204 S625
M205 X6 Y6
G0 F4285.7 X112.126 Y103.457
M204 S500
M205 X5 Y5
G1 F1200 X112.592 Y103.007 E19.8337
G1 X113.109 Y102.618 E19.90707
G1 X113.671 Y102.295 E19.98058
G1 X114.268 Y102.044 E20.05402
G1 X114.892 Y101.868 E20.12754
G1 X115.532 Y101.771 E20.20095
G1 X116 Y101.75 E20.25407
G1 X117 Y101.75 E20.36747
G1 X117.647 Y101.79 E20.44098
G1 X118.283 Y101.909 E20.51436
G1 X118.9 Y102.106 E20.5878
G1 X119.489 Y102.377 E20.66133
G1 X120.039 Y102.719 E20.73477
G1 X120.543 Y103.126 E20.80823
G1 X120.993 Y103.592 E20.88169
G1 X121.382 Y104.109 E20.95506
G1 X121.705 Y104.671 E21.02857
G1 X121.956 Y105.268 E21.10201
G1 X122.132 Y105.892 E21.17553
G1 X122.229 Y106.532 E21.24894
G1 X122.25 Y107 E21.30206
G1 X122.25 Y108 E21.41546
G1 X122.21 Y108.647 E21.48897
G1 X122.091 Y109.283 E21.56235
G1 X121.894 Y109.9 E21.63579
G1 X121.623 Y110.489 E21.70932
G1 X121.281 Y111.039 E21.78276
G1 X120.874 Y111.543 E21.85622
G1 X120.408 Y111.993 E21.92969
G1 X119.891 Y112.382 E22.00306
G1 X119.329 Y112.705 E22.07656
G1 X118.732 Y112.956 E22.15
G1 X118.108 Y113.132 E22.22353
G1 X117.468 Y113.229 E22.29693
G1 X117 Y113.25 E22.35005
G1 X116 Y113.25 E22.46345
G1 X115.353 Y113.21 E22.53696
G1 X114.717 Y113.091 E22.61034
G1 X114.1 Y112.894 E22.68379
G1 X113.511 Y112.623 E22.75731
G1 X112.961 Y112.281 E22.83075
G1 X112.457 Y111.874 E22.90422
G1 X112.007 Y111.408 E22.97768
G1 X111.618 Y110.891 E23.05105
G1 X111.295 Y110.329 E23.12455
G1 X111.044 Y109.732 E23.19799
G1 X110.868 Y109.108 E23.27152
G1 X110.771 Y108.468 E23.34492
G1 X110.75 Y108 E23.39805
G1 X110.75 Y107 E23.51145
G1 X110.79 Y106.353 E23.58496
G1 X110.909 Y105.717 E23.65833
G1 X111.106 Y105.1 E23.73178
G1 X111.377 Y104.511 E23.8053
G1 X111.719 Y103.961 E23.87875
G1 X112.126 Y103.457 E23.95221
M204 S625
M205 X6 Y6
G0 F4285.7 X112.54 Y103.63
M204 S500
M205 X5 Y5
G1 F1200 X113.002 Y103.213 E24.02278
G1 X113.512 Y102.86 E24.09312
G1 X114.064 Y102.575 E24.16357
G1 X114.649 Y102.363 E24.23413
G1 X115.255 Y102.228 E24.30453
G1 X116 Y102.17 E24.38927
G1 X117 Y102.17 E24.50267
G1 X117.62 Y102.21 E24.57313
G1 X118.23 Y102.329 E24.6436
G1 X118.819 Y102.526 E24.71403
G1 X119.378 Y102.796 E24.78443
G1 X119.898 Y103.136 E24.85489
G1 X120.37 Y103.54 E24.92534
G1 X120.787 Y104.002 E24.99592
G1 X121.14 Y104.512 E25.06625
G1 X121.425 Y105.064 E25.1367
G1 X121.637 Y105.649 E25.20726
G1 X121.772 Y106.255 E25.27767
G1 X121.83 Y107 E25.3624
G1 X121.83 Y108 E25.4758
G1 X121.79 Y108.62 E25.54626
G1 X121.671 Y109.23 E25.61674
G1 X121.474 Y109.819 E25.68717
G1 X121.204 Y110.378 E25.75756
G1 X120.864 Y110.898 E25.82802
G1 X120.46 Y111.37 E25.89847
G1 X119.998 Y111.787 E25.96905
G1 X119.488 Y112.14 E26.03938
G1 X118.936 Y112.425 E26.10983
G1 X118.351 Y112.637 E26.18039
G1 X117.745 Y112.772 E26.2508
G1 X117 Y112.83 E26.33554
G1 X116 Y112.83 E26.44894
G1 X115.38 Y112.79 E26.51939
G1 X114.77 Y112.671 E26.58987
G1 X114.181 Y112.474 E26.6603
G1 X113.622 Y112.204 E26.73069
G1 X113.102 Y111.864 E26.80115
G1 X112.63 Y111.46 E26.8716
G1 X112.213 Y110.998 E26.94218
G1 X111.86 Y110.488 E27.01252
G1 X111.575 Y109.936 E27.08296
G1 X111.363 Y109.351 E27.15352
G1 X111.228 Y108.745 E27.22393
G1 X111.17 Y108 E27.30867
G1 X111.17 Y107 E27.42207
G1 X111.21 Y106.38 E27.49252
G1 X111.329 Y105.77 E27.563
G1 X111.526 Y105.181 E27.63343
G1 X111.796 Y104.622 E27.70383
G1 X112.136 Y104.102 E27.77428
G1 X112.54 Y103.63 E27.84473
M204 S625
M205 X6 Y6
G0 F4285.7 X112.954 Y103.811
M204 S500
M205 X5 Y5
G1 F1200 X113.41 Y103.431 E27.91205
G1 X113.913 Y103.115 E27.97941
G1 X114.453 Y102.87 E28.04665
G1 X115.022 Y102.7 E28.114
G1 X115.608 Y102.607 E28.18128
G1 X116 Y102.59 E28.22577
G1 X117 Y102.59 E28.33917
G1 X117.592 Y102.63 E28.40646
G1 X118.174 Y102.749 E28.47382
G1 X118.734 Y102.945 E28.54111
G1 X119.263 Y103.215 E28.60846
G1 X119.751 Y103.553 E28.67577
G1 X120.189 Y103.954 E28.74311
G1 X120.569 Y104.41 E28.81043
G1 X120.885 Y104.913 E28.87779
G1 X121.13 Y105.453 E28.94503
G1 X121.3 Y106.022 E29.01238
G1 X121.393 Y106.608 E29.07966
G1 X121.41 Y107 E29.12415
G1 X121.41 Y108 E29.23755
G1 X121.37 Y108.592 E29.30484
G1 X121.251 Y109.174 E29.3722
G1 X121.055 Y109.734 E29.43949
G1 X120.785 Y110.263 E29.50684
G1 X120.447 Y110.751 E29.57415
G1 X120.046 Y111.189 E29.64149
G1 X119.59 Y111.569 E29.70881
G1 X119.087 Y111.885 E29.77617
G1 X118.547 Y112.13 E29.84341
G1 X117.978 Y112.3 E29.91076
G1 X117.392 Y112.393 E29.97804
G1 X117 Y112.41 E30.02253
G1 X116 Y112.41 E30.13593
G1 X115.408 Y112.37 E30.20322
G1 X114.826 Y112.251 E30.27058
G1 X114.266 Y112.055 E30.33787
G1 X113.737 Y111.785 E30.40522
G1 X113.249 Y111.447 E30.47253
G1 X112.811 Y111.046 E30.53987
G1 X112.431 Y110.59 E30.60719
G1 X112.115 Y110.087 E30.67455
G1 X111.87 Y109.547 E30.74179
G1 X111.7 Y108.978 E30.80914
G1 X111.607 Y108.392 E30.87642
G1 X111.59 Y108 E30.92091
G1 X111.59 Y107 E31.03431
G1 X111.63 Y106.408 E31.1016
G1 X111.749 Y105.826 E31.16896
G1 X111.945 Y105.266 E31.23625
G1 X112.215 Y104.737 E31.3036
G1 X112.553 Y104.249 E31.37091
G1 X112.954 Y103.811 E31.43825
M204 S625
M205 X6 Y6
G0 F4285.7 X112.969 Y104.405
M204 S500
M205 X5 Y5
G1 F1200 X113.366 Y104.003 E31.50232
G1 X113.815 Y103.661 E31.56633
G1 X114.309 Y103.386 E31.63044
G1 X114.836 Y103.184 E31.69444
G1 X115.386 Y103.058 E31.75843
G1 X116 Y103.01 E31.82827
G1 X117 Y103.01 E31.94167
G1 X117.563 Y103.05 E32.00568
G1 X118.115 Y103.169 E32.06971
G1 X118.645 Y103.365 E32.13379
G1 X119.141 Y103.633 E32.19772
G1 X119.595 Y103.969 E32.26177
G1 X119.997 Y104.366 E32.32584
G1 X120.339 Y104.815 E32.38985
G1 X120.614 Y105.309 E32.45396
G1 X120.816 Y105.836 E32.51796
G1 X120.942 Y106.386 E32.58195
G1 X120.99 Y107 E32.65179
G1 X120.99 Y108 E32.76519
G1 X120.95 Y108.563 E32.82919
G1 X120.831 Y109.115 E32.89323
G1 X120.635 Y109.645 E32.95731
G1 X120.367 Y110.141 E33.02124
G1 X120.031 Y110.595 E33.08529
G1 X119.634 Y110.997 E33.14936
G1 X119.185 Y111.339 E33.21337
G1 X118.691 Y111.614 E33.27748
G1 X118.164 Y111.816 E33.34148
G1 X117.614 Y111.942 E33.40547
G1 X117 Y111.99 E33.47531
G1 X116 Y111.99 E33.58871
G1 X115.437 Y111.95 E33.65271
G1 X114.885 Y111.831 E33.71675
G1 X114.355 Y111.635 E33.78083
G1 X113.859 Y111.367 E33.84476
G1 X113.405 Y111.031 E33.90881
G1 X113.003 Y110.634 E33.97288
G1 X112.661 Y110.185 E34.03688
G1 X112.386 Y109.691 E34.101
G1 X112.184 Y109.164 E34.165
G1 X112.058 Y108.614 E34.22899
G1 X112.01 Y108 E34.29883
G1 X112.01 Y107 E34.41223
G1 X112.05 Y106.437 E34.47623
G1 X112.169 Y105.885 E34.54027
G1 X112.365 Y105.355 E34.60435
G1 X112.633 Y104.859 E34.66828
G1 X112.969 Y104.405 E34.73233
M204 S625
M205 X6 Y6
G0 F4285.7 X113.385 Y104.57
M204 S500
M205 X5 Y5
G1 F1200 X113.776 Y104.207 E34.79283
G1 X114.218 Y103.907 E34.85341
G1 X114.699 Y103.675 E34.91397
G1 X115.21 Y103.519 E34.97455
G1 X116 Y103.43 E35.06471
G1 X117 Y103.43 E35.17811
G1 X117.533 Y103.47 E35.23872
G1 X118.053 Y103.589 E35.29921
G1 X118.55 Y103.784 E35.35975
G1 X119.013 Y104.051 E35.42036
G1 X119.43 Y104.385 E35.48095
G1 X119.793 Y104.776 E35.54145
G1 X120.093 Y105.218 E35.60203
G1 X120.325 Y105.699 E35.66259
G1 X120.481 Y106.21 E35.72317
G1 X120.57 Y107 E35.81333
G1 X120.57 Y108 E35.92673
G1 X120.53 Y108.533 E35.98734
G1 X120.411 Y109.053 E36.04783
G1 X120.216 Y109.55 E36.10837
G1 X119.949 Y110.013 E36.16898
G1 X119.615 Y110.43 E36.22957
G1 X119.224 Y110.793 E36.29007
G1 X118.782 Y111.093 E36.35065
G1 X118.301 Y111.325 E36.41121
G1 X117.79 Y111.481 E36.47179
G1 X117 Y111.57 E36.56195
G1 X116 Y111.57 E36.67535
G1 X115.467 Y111.53 E36.73596
G1 X114.947 Y111.411 E36.79645
G1 X114.45 Y111.216 E36.85699
G1 X113.987 Y110.949 E36.9176
G1 X113.57 Y110.615 E36.97819
G1 X113.207 Y110.224 E37.03869
G1 X112.907 Y109.782 E37.09927
G1 X112.675 Y109.301 E37.15983
G1 X112.519 Y108.79 E37.22042
G1 X112.43 Y108 E37.31057
G1 X112.43 Y107 E37.42397
G1 X112.47 Y106.467 E37.48458
G1 X112.589 Y105.947 E37.54507
G1 X112.784 Y105.45 E37.60562
G1 X113.051 Y104.987 E37.66622
G1 X113.385 Y104.57 E37.72681
M204 S625
M205 X6 Y6
G0 F4285.7 X113.799 Y104.747
M204 S500
M205 X5 Y5
G1 F1200 X114.184 Y104.426 E37.78365
G1 X114.616 Y104.17 E37.8406
G1 X115.083 Y103.987 E37.89748
G1 X115.572 Y103.879 E37.95427
G1 X116 Y103.85 E38.00291
G1 X117 Y103.85 E38.11631
G1 X117.5 Y103.89 E38.17319
G1 X117.987 Y104.009 E38.23004
G1 X118.45 Y104.203 E38.28697
G1 X118.875 Y104.469 E38.34383
G1 X119.253 Y104.799 E38.40073
G1 X119.574 Y105.184 E38.45757
