;FLAVOR:RepRap
;TIME:739
;Filament used: 0.118429m, 0m
;Layer height: 0.1
;MINX:104.57
;MINY:95.57
;MINZ:0.27
;MAXX:128.43
;MAXY:119.43
;MAXZ:9.97
;Generated with Cura_SteamEngine master
T0
M190 S60
M104 S205
M109 S205
M82 ;absolute extrusion mode

G92 E0
G92 E0
G1 F1500 E-6.5
;LAYER_COUNT:98
;LAYER:0
M107
M204 T625
M566 X360 Y360
G0 F4285.7 X106.44 Y97.765 Z0.27
M204 P500
M566 X300 Y300
;TYPE:SKIRT
G1 F1500 E0
G1 F1200 X106.977 Y97.25 E0.01323
G1 X107.566 Y96.795 E0.02646
G1 X108.2 Y96.406 E0.03968
G1 X108.873 Y96.087 E0.05292
G1 X109.576 Y95.842 E0.06615
G1 X110.301 Y95.674 E0.07938
G1 X111.04 Y95.585 E0.09261
G1 X111.5 Y95.57 E0.10079
G1 X121.5 Y95.57 E0.27855
G1 X122.243 Y95.61 E0.29178
G1 X122.978 Y95.729 E0.30501
G1 X123.696 Y95.927 E0.31825
G1 X124.388 Y96.2 E0.33148
G1 X125.047 Y96.546 E0.34471
G1 X125.665 Y96.961 E0.35794
G1 X126.235 Y97.44 E0.37118
G1 X126.75 Y97.977 E0.3844
G1 X127.205 Y98.566 E0.39763
G1 X127.594 Y99.2 E0.41085
G1 X127.913 Y99.873 E0.42409
G1 X128.158 Y100.576 E0.43733
G1 X128.326 Y101.301 E0.45056
G1 X128.415 Y102.04 E0.46379
G1 X128.43 Y102.5 E0.47197
G1 X128.43 Y112.5 E0.64973
G1 X128.39 Y113.243 E0.66296
G1 X128.271 Y113.978 E0.67619
G1 X128.073 Y114.696 E0.68943
G1 X127.8 Y115.388 E0.70265
G1 X127.454 Y116.047 E0.71589
G1 X127.039 Y116.665 E0.72912
G1 X126.56 Y117.235 E0.74235
G1 X126.023 Y117.75 E0.75558
G1 X125.434 Y118.205 E0.76881
G1 X124.8 Y118.594 E0.78203
G1 X124.127 Y118.913 E0.79527
G1 X123.424 Y119.158 E0.8085
G1 X122.699 Y119.326 E0.82173
G1 X121.96 Y119.415 E0.83496
G1 X121.5 Y119.43 E0.84315
G1 X111.5 Y119.43 E1.02091
G1 X110.757 Y119.39 E1.03413
G1 X110.022 Y119.271 E1.04737
G1 X109.304 Y119.073 E1.06061
G1 X108.612 Y118.8 E1.07383
G1 X107.953 Y118.454 E1.08706
G1 X107.335 Y118.039 E1.10029
G1 X106.765 Y117.56 E1.11353
G1 X106.25 Y117.023 E1.12676
G1 X105.795 Y116.434 E1.13999
G1 X105.406 Y115.8 E1.15321
G1 X105.087 Y115.127 E1.16645
G1 X104.842 Y114.424 E1.17968
G1 X104.674 Y113.699 E1.19291
G1 X104.585 Y112.96 E1.20614
G1 X104.57 Y112.5 E1.21432
G1 X104.57 Y102.5 E1.39208
G1 X104.61 Y101.757 E1.40531
G1 X104.729 Y101.022 E1.41854
G1 X104.927 Y100.304 E1.43178
G1 X105.2 Y99.612 E1.44501
G1 X105.546 Y98.953 E1.45824
G1 X105.961 Y98.335 E1.47147
G1 X106.44 Y97.765 E1.48471
M566 X360 Y360
G0 F4285.7 X106.854 Y97.94
M566 X300 Y300
G1 F1200 X107.387 Y97.454 E1.49753
G1 X107.971 Y97.03 E1.51036
G1 X108.598 Y96.673 E1.52318
G1 X109.26 Y96.387 E1.536
G1 X109.95 Y96.177 E1.54882
G1 X110.659 Y96.045 E1.56164
G1 X111.5 Y95.99 E1.57662
G1 X121.5 Y95.99 E1.75438
G1 X122.22 Y96.03 E1.7672
G1 X122.932 Y96.149 E1.78003
G1 X123.626 Y96.347 E1.79286
G1 X124.293 Y96.62 E1.80567
G1 X124.927 Y96.965 E1.8185
G1 X125.518 Y97.378 E1.83132
G1 X126.06 Y97.854 E1.84414
G1 X126.546 Y98.387 E1.85697
G1 X126.97 Y98.971 E1.86979
G1 X127.327 Y99.598 E1.88262
G1 X127.613 Y100.26 E1.89544
G1 X127.823 Y100.95 E1.90826
G1 X127.955 Y101.659 E1.92108
G1 X128.01 Y102.5 E1.93606
G1 X128.01 Y112.5 E2.11382
G1 X127.97 Y113.22 E2.12664
G1 X127.851 Y113.932 E2.13947
G1 X127.653 Y114.626 E2.1523
G1 X127.38 Y115.293 E2.16511
G1 X127.035 Y115.927 E2.17794
G1 X126.622 Y116.518 E2.19076
G1 X126.146 Y117.06 E2.20358
G1 X125.613 Y117.546 E2.2164
G1 X125.029 Y117.97 E2.22923
G1 X124.402 Y118.327 E2.24206
G1 X123.74 Y118.613 E2.25488
G1 X123.05 Y118.823 E2.2677
G1 X122.341 Y118.955 E2.28052
G1 X121.5 Y119.01 E2.2955
G1 X111.5 Y119.01 E2.47326
G1 X110.78 Y118.97 E2.48608
G1 X110.068 Y118.851 E2.49891
G1 X109.374 Y118.653 E2.51174
G1 X108.707 Y118.38 E2.52455
G1 X108.073 Y118.035 E2.53738
G1 X107.482 Y117.622 E2.5502
G1 X106.94 Y117.146 E2.56302
G1 X106.454 Y116.613 E2.57584
G1 X106.03 Y116.029 E2.58867
G1 X105.673 Y115.402 E2.60149
G1 X105.387 Y114.74 E2.61431
G1 X105.177 Y114.05 E2.62713
G1 X105.045 Y113.341 E2.63995
G1 X104.99 Y112.5 E2.65494
G1 X104.99 Y102.5 E2.83269
G1 X105.03 Y101.78 E2.84551
G1 X105.149 Y101.068 E2.85835
G1 X105.347 Y100.374 E2.87117
G1 X105.62 Y99.707 E2.88399
G1 X105.965 Y99.073 E2.89682
G1 X106.378 Y98.482 E2.90963
G1 X106.854 Y97.94 E2.92246
M566 X360 Y360
G0 F4285.7 X107.268 Y98.121
M566 X300 Y300
G1 F1200 X107.796 Y97.666 E2.93485
G1 X108.373 Y97.274 E2.94724
G1 X108.992 Y96.951 E2.95966
G1 X109.643 Y96.7 E2.97206
G1 X110.319 Y96.526 E2.98447
G1 X111.01 Y96.43 E2.99687
G1 X111.5 Y96.41 E3.00559
G1 X121.5 Y96.41 E3.18335
G1 X122.197 Y96.45 E3.19576
G1 X122.884 Y96.569 E3.20815
G1 X123.553 Y96.767 E3.22055
G1 X124.196 Y97.039 E3.23296
G1 X124.802 Y97.383 E3.24535
G1 X125.366 Y97.795 E3.25776
G1 X125.879 Y98.268 E3.27017
G1 X126.334 Y98.796 E3.28256
G1 X126.726 Y99.373 E3.29496
G1 X127.049 Y99.992 E3.30737
G1 X127.3 Y100.643 E3.31977
G1 X127.474 Y101.319 E3.33218
G1 X127.57 Y102.01 E3.34458
G1 X127.59 Y102.5 E3.3533
G1 X127.59 Y112.5 E3.53106
G1 X127.55 Y113.197 E3.54347
G1 X127.431 Y113.884 E3.55586
G1 X127.233 Y114.553 E3.56826
G1 X126.961 Y115.196 E3.58068
G1 X126.617 Y115.802 E3.59306
G1 X126.205 Y116.366 E3.60548
G1 X125.732 Y116.879 E3.61788
G1 X125.204 Y117.334 E3.63027
G1 X124.627 Y117.726 E3.64267
G1 X124.008 Y118.049 E3.65508
G1 X123.357 Y118.3 E3.66749
G1 X122.681 Y118.474 E3.67989
G1 X121.99 Y118.57 E3.69229
G1 X121.5 Y118.59 E3.70101
G1 X111.5 Y118.59 E3.87877
G1 X110.803 Y118.55 E3.89118
G1 X110.116 Y118.431 E3.90358
G1 X109.447 Y118.233 E3.91598
G1 X108.804 Y117.961 E3.92839
G1 X108.198 Y117.617 E3.94078
G1 X107.634 Y117.205 E3.95319
G1 X107.121 Y116.732 E3.96559
G1 X106.666 Y116.204 E3.97798
G1 X106.274 Y115.627 E3.99038
G1 X105.951 Y115.008 E4.0028
G1 X105.7 Y114.357 E4.0152
G1 X105.526 Y113.681 E4.02761
G1 X105.43 Y112.99 E4.04001
G1 X105.41 Y112.5 E4.04873
G1 X105.41 Y102.5 E4.22649
G1 X105.45 Y101.803 E4.2389
G1 X105.569 Y101.116 E4.25129
G1 X105.767 Y100.447 E4.26369
G1 X106.039 Y99.804 E4.2761
G1 X106.383 Y99.198 E4.28849
G1 X106.795 Y98.634 E4.3009
G1 X107.268 Y98.121 E4.31331
M566 X360 Y360
G0 F4285.7 X107.21 Y98.792
M566 X300 Y300
G1 F1200 X107.68 Y98.31 E4.32528
G1 X108.204 Y97.887 E4.33725
G1 X108.774 Y97.528 E4.34922
G1 X109.382 Y97.24 E4.36118
G1 X110.02 Y97.026 E4.37314
G1 X110.68 Y96.89 E4.38512
G1 X111.5 Y96.83 E4.39974
G1 X121.5 Y96.83 E4.5775
G1 X122.172 Y96.87 E4.58946
G1 X122.835 Y96.989 E4.60144
G1 X123.478 Y97.186 E4.61339
G1 X124.094 Y97.458 E4.62536
G1 X124.673 Y97.801 E4.63732
G1 X125.208 Y98.21 E4.64929
G1 X125.69 Y98.68 E4.66126
G1 X126.113 Y99.204 E4.67323
G1 X126.472 Y99.774 E4.68521
G1 X126.76 Y100.382 E4.69717
G1 X126.974 Y101.02 E4.70913
G1 X127.11 Y101.68 E4.72111
G1 X127.17 Y102.5 E4.73572
G1 X127.17 Y112.5 E4.91348
G1 X127.13 Y113.172 E4.92545
G1 X127.011 Y113.835 E4.93742
G1 X126.814 Y114.478 E4.94938
G1 X126.542 Y115.094 E4.96135
G1 X126.199 Y115.673 E4.97331
G1 X125.79 Y116.208 E4.98528
G1 X125.32 Y116.69 E4.99725
G1 X124.796 Y117.113 E5.00922
G1 X124.226 Y117.472 E5.02119
G1 X123.618 Y117.76 E5.03315
G1 X122.98 Y117.974 E5.04511
G1 X122.32 Y118.11 E5.05709
G1 X121.5 Y118.17 E5.07171
G1 X111.5 Y118.17 E5.24947
G1 X110.828 Y118.13 E5.26143
G1 X110.165 Y118.011 E5.27341
G1 X109.522 Y117.814 E5.28536
G1 X108.906 Y117.542 E5.29733
G1 X108.327 Y117.199 E5.30929
G1 X107.792 Y116.79 E5.32126
G1 X107.31 Y116.32 E5.33323
G1 X106.887 Y115.796 E5.3452
G1 X106.528 Y115.226 E5.35718
G1 X106.24 Y114.618 E5.36914
G1 X106.026 Y113.98 E5.3811
G1 X105.89 Y113.32 E5.39308
G1 X105.83 Y112.5 E5.40769
G1 X105.83 Y102.5 E5.58545
G1 X105.87 Y101.828 E5.59742
G1 X105.989 Y101.165 E5.60939
G1 X106.186 Y100.522 E5.62135
G1 X106.458 Y99.906 E5.63332
G1 X106.801 Y99.327 E5.64528
G1 X107.21 Y98.792 E5.65725
M566 X360 Y360
G0 F4285.7 X107.626 Y98.957
M566 X300 Y300
G1 F1200 X108.092 Y98.507 E5.66877
G1 X108.609 Y98.118 E5.68027
G1 X109.171 Y97.795 E5.69179
G1 X109.768 Y97.544 E5.7033
G1 X110.392 Y97.368 E5.71483
G1 X111.032 Y97.271 E5.72633
G1 X111.5 Y97.25 E5.73466
G1 X121.5 Y97.25 E5.91242
G1 X122.147 Y97.29 E5.92394
G1 X122.783 Y97.409 E5.93544
G1 X123.4 Y97.606 E5.94696
G1 X123.989 Y97.877 E5.95848
G1 X124.539 Y98.219 E5.97
G1 X125.043 Y98.626 E5.98151
G1 X125.493 Y99.092 E5.99303
G1 X125.882 Y99.609 E6.00453
G1 X126.205 Y100.171 E6.01605
G1 X126.456 Y100.768 E6.02756
G1 X126.632 Y101.392 E6.03909
G1 X126.729 Y102.032 E6.05059
G1 X126.75 Y102.5 E6.05892
G1 X126.75 Y112.5 E6.23668
G1 X126.71 Y113.147 E6.2482
G1 X126.591 Y113.783 E6.25971
G1 X126.394 Y114.4 E6.27122
G1 X126.123 Y114.989 E6.28274
G1 X125.781 Y115.539 E6.29426
G1 X125.374 Y116.043 E6.30577
G1 X124.908 Y116.493 E6.31729
G1 X124.391 Y116.882 E6.32879
G1 X123.829 Y117.205 E6.34031
G1 X123.232 Y117.456 E6.35182
G1 X122.608 Y117.632 E6.36335
G1 X121.968 Y117.729 E6.37486
G1 X121.5 Y117.75 E6.38318
G1 X111.5 Y117.75 E6.56094
G1 X110.853 Y117.71 E6.57247
G1 X110.217 Y117.591 E6.58397
G1 X109.6 Y117.394 E6.59548
G1 X109.011 Y117.123 E6.60701
G1 X108.461 Y116.781 E6.61852
G1 X107.957 Y116.374 E6.63003
G1 X107.507 Y115.908 E6.64155
G1 X107.118 Y115.391 E6.65305
G1 X106.795 Y114.829 E6.66457
G1 X106.544 Y114.232 E6.67609
G1 X106.368 Y113.608 E6.68761
G1 X106.271 Y112.968 E6.69912
G1 X106.25 Y112.5 E6.70744
G1 X106.25 Y102.5 E6.8852
G1 X106.29 Y101.853 E6.89673
G1 X106.409 Y101.217 E6.90823
G1 X106.606 Y100.6 E6.91974
G1 X106.877 Y100.011 E6.93127
G1 X107.219 Y99.461 E6.94278
G1 X107.626 Y98.957 E6.9543
M566 X360 Y360
G0 F4285.7 X108.04 Y99.13
M566 X300 Y300
G1 F1200 X108.502 Y98.713 E6.96536
G1 X109.012 Y98.36 E6.97638
G1 X109.564 Y98.075 E6.98743
G1 X110.149 Y97.863 E6.99849
G1 X110.755 Y97.728 E7.00952
G1 X111.5 Y97.67 E7.02281
G1 X121.5 Y97.67 E7.20057
G1 X122.12 Y97.71 E7.21161
G1 X122.73 Y97.829 E7.22266
G1 X123.319 Y98.026 E7.2337
G1 X123.878 Y98.296 E7.24473
G1 X124.398 Y98.636 E7.25578
G1 X124.87 Y99.04 E7.26682
G1 X125.287 Y99.502 E7.27789
G1 X125.64 Y100.012 E7.28891
G1 X125.925 Y100.564 E7.29995
G1 X126.137 Y101.149 E7.31101
G1 X126.272 Y101.755 E7.32205
G1 X126.33 Y102.5 E7.33533
G1 X126.33 Y112.5 E7.51309
G1 X126.29 Y113.12 E7.52414
G1 X126.171 Y113.73 E7.53519
G1 X125.974 Y114.319 E7.54623
G1 X125.704 Y114.878 E7.55726
G1 X125.364 Y115.398 E7.5683
G1 X124.96 Y115.87 E7.57935
G1 X124.498 Y116.287 E7.59041
G1 X123.988 Y116.64 E7.60144
G1 X123.436 Y116.925 E7.61248
G1 X122.851 Y117.137 E7.62354
G1 X122.245 Y117.272 E7.63458
G1 X121.5 Y117.33 E7.64786
G1 X111.5 Y117.33 E7.82562
G1 X110.88 Y117.29 E7.83666
G1 X110.27 Y117.171 E7.84771
G1 X109.681 Y116.974 E7.85875
G1 X109.122 Y116.704 E7.86979
G1 X108.602 Y116.364 E7.88083
G1 X108.13 Y115.96 E7.89188
G1 X107.713 Y115.498 E7.90294
G1 X107.36 Y114.988 E7.91396
G1 X107.075 Y114.436 E7.92501
G1 X106.863 Y113.851 E7.93607
G1 X106.728 Y113.245 E7.9471
G1 X106.67 Y112.5 E7.96039
G1 X106.67 Y102.5 E8.13815
G1 X106.71 Y101.88 E8.14919
G1 X106.829 Y101.27 E8.16024
G1 X107.026 Y100.681 E8.17128
G1 X107.296 Y100.122 E8.18231
G1 X107.636 Y99.602 E8.19336
G1 X108.04 Y99.13 E8.2044
M566 X360 Y360
G0 F4285.7 X108.454 Y99.311
M566 X300 Y300
G1 F1200 X108.91 Y98.931 E8.21495
G1 X109.413 Y98.615 E8.22551
G1 X109.953 Y98.37 E8.23605
G1 X110.522 Y98.2 E8.24661
G1 X111.108 Y98.107 E8.25716
G1 X111.5 Y98.09 E8.26413
G1 X121.5 Y98.09 E8.44189
G1 X122.092 Y98.13 E8.45244
G1 X122.674 Y98.249 E8.463
G1 X123.234 Y98.445 E8.47355
G1 X123.763 Y98.715 E8.4841
G1 X124.251 Y99.053 E8.49466
G1 X124.689 Y99.454 E8.50521
G1 X125.069 Y99.91 E8.51576
G1 X125.385 Y100.413 E8.52632
G1 X125.63 Y100.953 E8.53686
G1 X125.8 Y101.522 E8.54742
G1 X125.893 Y102.108 E8.55797
G1 X125.91 Y102.5 E8.56494
G1 X125.91 Y112.5 E8.7427
G1 X125.87 Y113.092 E8.75325
G1 X125.751 Y113.674 E8.76381
G1 X125.555 Y114.234 E8.77435
G1 X125.285 Y114.763 E8.78491
G1 X124.947 Y115.251 E8.79546
G1 X124.546 Y115.689 E8.80602
G1 X124.09 Y116.069 E8.81657
G1 X123.587 Y116.385 E8.82713
G1 X123.047 Y116.63 E8.83767
G1 X122.478 Y116.8 E8.84823
G1 X121.892 Y116.893 E8.85878
G1 X121.5 Y116.91 E8.86575
G1 X111.5 Y116.91 E9.04351
G1 X110.908 Y116.87 E9.05406
G1 X110.326 Y116.751 E9.06462
G1 X109.766 Y116.555 E9.07516
G1 X109.237 Y116.285 E9.08572
G1 X108.749 Y115.947 E9.09627
G1 X108.311 Y115.546 E9.10683
G1 X107.931 Y115.09 E9.11738
G1 X107.615 Y114.587 E9.12794
G1 X107.37 Y114.047 E9.13848
G1 X107.2 Y113.478 E9.14904
G1 X107.107 Y112.892 E9.15958
G1 X107.09 Y112.5 E9.16656
G1 X107.09 Y102.5 E9.34432
G1 X107.13 Y101.908 E9.35487
G1 X107.249 Y101.326 E9.36543
G1 X107.445 Y100.766 E9.37597
G1 X107.715 Y100.237 E9.38653
G1 X108.053 Y99.749 E9.39708
G1 X108.454 Y99.311 E9.40764
M566 X360 Y360
G0 F4285.7 X108.469 Y99.905
M566 X300 Y300
G1 F1200 X108.866 Y99.503 E9.41768
G1 X109.315 Y99.161 E9.42771
G1 X109.809 Y98.886 E9.43776
G1 X110.336 Y98.684 E9.4478
G1 X110.886 Y98.558 E9.45783
G1 X111.5 Y98.51 E9.46877
G1 X121.5 Y98.51 E9.64653
G1 X122.063 Y98.55 E9.65657
G1 X122.615 Y98.669 E9.66661
G1 X123.145 Y98.865 E9.67665
G1 X123.641 Y99.133 E9.68667
G1 X124.095 Y99.469 E9.69671
G1 X124.497 Y99.866 E9.70676
G1 X124.839 Y100.315 E9.71679
G1 X125.114 Y100.809 E9.72684
G1 X125.316 Y101.336 E9.73687
G1 X125.442 Y101.886 E9.7469
G1 X125.49 Y102.5 E9.75785
G1 X125.49 Y112.5 E9.93561
G1 X125.45 Y113.063 E9.94564
G1 X125.331 Y113.615 E9.95568
G1 X125.135 Y114.145 E9.96572
G1 X124.867 Y114.641 E9.97575
G1 X124.531 Y115.095 E9.98579
G1 X124.134 Y115.497 E9.99583
G1 X123.685 Y115.839 E10.00586
G1 X123.191 Y116.114 E10.01591
G1 X122.664 Y116.316 E10.02595
G1 X122.114 Y116.442 E10.03598
G1 X121.5 Y116.49 E10.04692
G1 X111.5 Y116.49 E10.22468
G1 X110.937 Y116.45 E10.23472
G1 X110.385 Y116.331 E10.24475
G1 X109.855 Y116.135 E10.2548
G1 X109.359 Y115.867 E10.26482
G1 X108.905 Y115.531 E10.27486
G1 X108.503 Y115.134 E10.2849
G1 X108.161 Y114.685 E10.29494
G1 X107.886 Y114.191 E10.30499
G1 X107.684 Y113.664 E10.31502
G1 X107.558 Y113.114 E10.32505
G1 X107.51 Y112.5 E10.336
G1 X107.51 Y102.5 E10.51376
G1 X107.55 Y101.937 E10.52379
G1 X107.669 Y101.385 E10.53383
G1 X107.865 Y100.855 E10.54387
G1 X108.133 Y100.359 E10.55389
G1 X108.469 Y99.905 E10.56393
M566 X360 Y360
G0 F4285.7 X108.885 Y100.07
M566 X300 Y300
G1 F1200 X109.276 Y99.707 E10.57342
G1 X109.718 Y99.407 E10.58291
G1 X110.199 Y99.175 E10.59241
G1 X110.71 Y99.019 E10.6019
G1 X111.5 Y98.93 E10.61604
G1 X121.5 Y98.93 E10.7938
G1 X122.033 Y98.97 E10.8033
G1 X122.553 Y99.089 E10.81278
G1 X123.05 Y99.284 E10.82227
G1 X123.513 Y99.551 E10.83177
G1 X123.93 Y99.885 E10.84127
G1 X124.293 Y100.276 E10.85075
G1 X124.593 Y100.718 E10.86025
G1 X124.825 Y101.199 E10.86974
G1 X124.981 Y101.71 E10.87924
G1 X125.07 Y102.5 E10.89337
G1 X125.07 Y112.5 E11.07113
G1 X125.03 Y113.033 E11.08063
G1 X124.911 Y113.553 E11.09011
G1 X124.716 Y114.05 E11.0996
G1 X124.449 Y114.513 E11.1091
G1 X124.115 Y114.93 E11.1186
G1 X123.724 Y115.293 E11.12809
G1 X123.282 Y115.593 E11.13758
G1 X122.801 Y115.825 E11.14707
G1 X122.29 Y115.981 E11.15657
G1 X121.5 Y116.07 E11.1707
G1 X111.5 Y116.07 E11.34846
G1 X110.967 Y116.03 E11.35796
G1 X110.447 Y115.911 E11.36745
G1 X109.95 Y115.716 E11.37694
G1 X109.487 Y115.449 E11.38644
G1 X109.07 Y115.115 E11.39594
G1 X108.707 Y114.724 E11.40542
G1 X108.407 Y114.282 E11.41491
G1 X108.175 Y113.801 E11.42441
G1 X108.019 Y113.29 E11.43391
G1 X107.93 Y112.5 E11.44804
G1 X107.93 Y102.5 E11.6258
G1 X107.97 Y101.967 E11.6353
G1 X108.089 Y101.447 E11.64478
G1 X108.284 Y100.95 E11.65427
G1 X108.551 Y100.487 E11.66377
G1 X108.885 Y100.07 E11.67327
M566 X360 Y360
G0 F4285.7 X109.299 Y100.247
M566 X300 Y300
G1 F1200 X109.684 Y99.926 E11.68218
G1 X110.116 Y99.67 E11.69111
G1 X110.583 Y99.487 E11.70002
G1 X111.072 Y99.379 E11.70892
G1 X111.5 Y99.35 E11.71655
G1 X121.5 Y99.35 E11.89431
G1 X122 Y99.39 E11.90323
G1 X122.487 Y99.509 E11.91214
G1 X122.95 Y99.703 E11.92106
G1 X123.375 Y99.969 E11.92997
G1 X123.753 Y100.299 E11.93889
G1 X124.074 Y100.684 E11.9478
G1 X124.33 Y101.116 E11.95673
G1 X124.513 Y101.583 E11.96565
G1 X124.621 Y102.072 E11.97455
G1 X124.65 Y102.5 E11.98217
G1 X124.65 Y112.5 E12.15993
G1 X124.61 Y113 E12.16885
G1 X124.491 Y113.487 E12.17776
G1 X124.297 Y113.95 E12.18668
G1 X124.031 Y114.375 E12.1956
G1 X123.701 Y114.753 E12.20452
G1 X123.316 Y115.074 E12.21343
G1 X122.884 Y115.33 E12.22235
G1 X122.417 Y115.513 E12.23127
G1 X121.928 Y115.621 E12.24017
G1 X121.5 Y115.65 E12.2478
