;Sliced by ideaMaker 3.6.1.4415, 2020-10-22 17:23:56 UTC+0200
;Dimension: 305.000 305.000 305.000 0.400
;Plate Shape: 0
;Extruder Offset #1: 25.000 0.000
;Filament Diameter #1: 1.750
;Filament Diameter #2: 1.750
;Filament Compensation #1: 90.00
;Filament Compensation #2: 90.00
;Filament Density #1: 1240.00
;Filament Density #2: 1240.00
;Bounding Box: 152.000 153.000 152.000 153.000 0.250 1.050
;Model Gap: 0.000
M221 T0 S90.00
M140 S45.00
M104 T0 S200.00
M109 T0 S200.00
T0
M190 S45.00
M572 D0 S0.09
M572 D1 S0.09
G21
G90
M82
M107
G28
G1 Z0 F500
G92 E0
G1 Z0.2 F400
G1 X60 Y-2 F800
G1 X140 Y-2 E12 F200
G1 Z5 E15 F200
G92 E0
G1 F9000.0
M117 Printing...
;end of Start GCode
;LAYER:0
;Z:0.250
;LAYER:1
;Z:0.350
;HEIGHT:0.100
M106 S255
G1 F2400 E-0.5000
G0 F9000 X152.200 Y152.200
G0 F900 Z0.350
;TYPE:WALL-OUTER
;WIDTH:0.400
G1 F1500 E0.0000
G1 F600 X152.800 Y152.200 E0.0100
G1 X152.800 Y152.800 E0.0200
G1 X152.200 Y152.800 E0.0299
G1 X152.200 Y152.200 E0.0399
G0 F3600 X152.400 Y152.200
;LAYER:2
;Z:0.450
;HEIGHT:0.100
G1 F2400 E-0.4601
G0 F900 Z0.450
G0 F9000 X152.200 Y152.200
;TYPE:WALL-OUTER
;WIDTH:0.400
G1 F1500 E0.0399
G1 F600 X152.800 Y152.200 E0.0499
G1 X152.800 Y152.800 E0.0599
G1 X152.200 Y152.800 E0.0698
G1 X152.200 Y152.200 E0.0798
G0 F3600 X152.400 Y152.200
;LAYER:3
;Z:0.550
;HEIGHT:0.100
G1 F2400 E-0.4202
G0 F900 Z0.550
G0 F9000 X152.200 Y152.200
;TYPE:WALL-OUTER
;WIDTH:0.400
G1 F1500 E0.0798
G1 F600 X152.800 Y152.200 E0.0898
G1 X152.800 Y152.800 E0.0998
G1 X152.200 Y152.800 E0.1098
G1 X152.200 Y152.200 E0.1197
G0 F3600 X152.400 Y152.200
;LAYER:4
;Z:0.650
;HEIGHT:0.100
G1 F2400 E-0.3803
G0 F900 Z0.650
G0 F9000 X152.200 Y152.200
;TYPE:WALL-OUTER
;WIDTH:0.400
G1 F1500 E0.1197
G1 F600 X152.800 Y152.200 E0.1297
G1 X152.800 Y152.800 E0.1397
G1 X152.200 Y152.800 E0.1497
G1 X152.200 Y152.200 E0.1596
G0 F3600 X152.400 Y152.200
;LAYER:5
;Z:0.750
;HEIGHT:0.100
G1 F2400 E-0.3404
G0 F900 Z0.750
G0 F9000 X152.200 Y152.200
;TYPE:WALL-OUTER
;WIDTH:0.400
G1 F1500 E0.1596
G1 F600 X152.800 Y152.200 E0.1696
G1 X152.800 Y152.800 E0.1796
G1 X152.200 Y152.800 E0.1896
G1 X152.200 Y152.200 E0.1996
G0 F3600 X152.400 Y152.200
;LAYER:6
;Z:0.850
;HEIGHT:0.100
G1 F2400 E-0.3004
G0 F900 Z0.850
G0 F9000 X152.200 Y152.200
;TYPE:WALL-OUTER
;WIDTH:0.400
G1 F1500 E0.1996
G1 F600 X152.800 Y152.200 E0.2095
G1 X152.800 Y152.800 E0.2195
G1 X152.200 Y152.800 E0.2295
G1 X152.200 Y152.200 E0.2395
G0 F3600 X152.400 Y152.200
;LAYER:7
;Z:0.950
;HEIGHT:0.100
G1 F2400 E-0.2605
G0 F900 Z0.950
G0 F9000 X152.200 Y152.200
;TYPE:WALL-OUTER
;WIDTH:0.400
G1 F1500 E0.2395
G1 F600 X152.800 Y152.200 E0.2495
G1 X152.800 Y152.800 E0.2594
G1 X152.200 Y152.800 E0.2694
G1 X152.200 Y152.200 E0.2794
G0 F3600 X152.400 Y152.200
;LAYER:8
;Z:1.050
;HEIGHT:0.100
G1 F2400 E-0.2206
G0 F900 Z1.050
G0 F9000 X152.200 Y152.200
;TYPE:WALL-OUTER
;WIDTH:0.400
G1 F1500 E0.2794
G1 F600 X152.800 Y152.200 E0.2894
G1 X152.800 Y152.800 E0.2993
G1 X152.200 Y152.800 E0.3093
G1 X152.200 Y152.200 E0.3193
G0 F3600 X152.400 Y152.200
M106 S0
G1 F2400 E-0.1807
G0 F900 Z6.050
G0 F9000 X152.400 Y152.200
M221 T0 S100
G92 E0
;End GCode
M104 T0 S0
M221 T0 S100
M104 S0
M140 S0
M107
G91
G1 E-1 F300
G1 Z+0.5 E-5 Y-20 F9000.00
G28 X0 U0
M84
G90
;
;Print Time: 5
;Material#1 Used: 0.3
;Material#2 Used: 0.0
;Material#1 Cost: 0.00
;Material#2 Cost: 0.00
