;Sliced by ideaMaker 3.6.1.4415, 2020-10-22 17:25:36 UTC+0200
;Dimension: 305.000 305.000 305.000 0.400
;Plate Shape: 0
;Extruder Offset #1: 25.000 0.000
;Filament Diameter #1: 1.750
;Filament Diameter #2: 1.750
;Filament Compensation #1: 90.00
;Filament Compensation #2: 90.00
;Filament Density #1: 1240.00
;Filament Density #2: 1240.00
;Bounding Box: 143.203 161.800 143.200 161.797 0.000 10.050
;Model Gap: 0.000
M221 T0 S90.00
M140 S45.00
M104 T0 S200.00
M109 T0 S200.00
T0
M190 S45.00
M572 D0 S0.09
M572 D1 S0.09
G21
G90
M82
M107
G28
G1 Z0 F500
G92 E0
G1 Z0.2 F400
G1 X60 Y-2 F800
G1 X140 Y-2 E12 F200
G1 Z5 E15 F200
G92 E0
G1 F9000.0
M117 Printing...
;end of Start GCode
;LAYER:0
;Z:0.250
;HEIGHT:0.250
M106 S64
G1 F2400 E-0.5000
G0 F9000 X144.580 Y144.345
G0 F900 Z0.250
;TYPE:SKIRT
;WIDTH:0.520
G1 F1500 E0.0000
G1 F900 X145.174 Y143.886 E0.0406
G1 X145.636 Y143.627 E0.0692
G1 X146.121 Y143.429 E0.0975
G1 X146.863 Y143.251 E0.1388
G1 X147.500 Y143.200 E0.1733
G1 X157.536 Y143.201 E0.7157
G1 X158.171 Y143.254 E0.7502
G1 X158.684 Y143.368 E0.7786
G1 X159.184 Y143.546 E0.8072
G1 X159.784 Y143.860 E0.8438
G1 X160.331 Y144.266 E0.8807
G1 X160.751 Y144.688 E0.9128
G1 X161.031 Y145.049 E0.9375
G1 X161.336 Y145.561 E0.9697
G1 X161.592 Y146.186 E1.0062
G1 X161.722 Y146.699 E1.0348
G1 X161.800 Y147.500 E1.0783
G1 X161.797 Y157.577 E1.6230
G1 X161.744 Y158.177 E1.6555
G1 X161.608 Y158.764 E1.6881
G1 X161.391 Y159.326 E1.7207
G1 X161.099 Y159.849 E1.7530
G1 X160.783 Y160.275 E1.7817
G1 X160.420 Y160.655 E1.8101
G1 X159.895 Y161.069 E1.8462
G1 X159.439 Y161.336 E1.8748
G1 X158.814 Y161.592 E1.9113
G1 X158.301 Y161.722 E1.9399
G1 X157.593 Y161.796 E1.9784
G1 X147.423 Y161.797 E2.5281
G1 X146.823 Y161.744 E2.5606
G1 X146.236 Y161.608 E2.5932
G1 X145.674 Y161.391 E2.6257
G1 X145.151 Y161.099 E2.6581
G1 X144.725 Y160.783 E2.6868
G1 X144.345 Y160.420 E2.7152
G1 X143.931 Y159.895 E2.7513
G1 X143.664 Y159.439 E2.7799
G1 X143.408 Y158.814 E2.8164
G1 X143.278 Y158.301 E2.8450
G1 X143.204 Y157.593 E2.8835
G1 X143.203 Y147.423 E3.4331
G1 X143.256 Y146.823 E3.4657
G1 X143.392 Y146.236 E3.4982
G1 X143.609 Y145.674 E3.5308
G1 X143.901 Y145.151 E3.5632
G1 X144.217 Y144.725 E3.5918
G1 X144.580 Y144.345 E3.6202
G0 F9000 X144.953 Y144.708
G1 F900 X145.428 Y144.340 E3.6527
G1 X145.890 Y144.081 E3.6814
G1 X146.314 Y143.912 E3.7060
G1 X146.906 Y143.769 E3.7389
G1 X147.500 Y143.720 E3.7711
G1 X157.536 Y143.721 E4.3136
G1 X158.063 Y143.763 E4.3421
G1 X158.510 Y143.858 E4.3668
G1 X159.010 Y144.036 E4.3955
G1 X159.478 Y144.280 E4.4241
G1 X159.965 Y144.635 E4.4566
G1 X160.340 Y145.007 E4.4852
G1 X160.620 Y145.368 E4.5099
G1 X160.887 Y145.824 E4.5384
G1 X161.088 Y146.314 E4.5671
G1 X161.218 Y146.827 E4.5957
G1 X161.280 Y147.500 E4.6322
G1 X161.279 Y157.536 E5.1746
G1 X161.237 Y158.063 E5.2032
G1 X161.121 Y158.581 E5.2319
G1 X160.935 Y159.076 E5.2605
G1 X160.681 Y159.539 E5.2890
G1 X160.365 Y159.965 E5.3177
G1 X160.047 Y160.292 E5.3423
G1 X159.632 Y160.620 E5.3709
G1 X159.176 Y160.887 E5.3995
G1 X158.686 Y161.088 E5.4281
G1 X158.173 Y161.218 E5.4567
G1 X157.544 Y161.278 E5.4908
G1 X147.464 Y161.279 E6.0356
G1 X146.937 Y161.237 E6.0642
G1 X146.419 Y161.121 E6.0929
G1 X145.924 Y160.935 E6.1215
G1 X145.461 Y160.681 E6.1500
G1 X145.035 Y160.365 E6.1787
G1 X144.708 Y160.047 E6.2033
G1 X144.380 Y159.632 E6.2319
G1 X144.113 Y159.176 E6.2605
G1 X143.912 Y158.686 E6.2891
G1 X143.782 Y158.173 E6.3177
G1 X143.722 Y157.544 E6.3519
G1 X143.721 Y147.464 E6.8967
G1 X143.763 Y146.937 E6.9253
G1 X143.879 Y146.419 E6.9539
G1 X144.065 Y145.924 E6.9825
G1 X144.319 Y145.461 E7.0111
G1 X144.635 Y145.035 E7.0397
G1 X144.953 Y144.708 E7.0644
G0 F9000 X145.326 Y145.071
G1 F900 X145.687 Y144.791 E7.0891
G1 X146.083 Y144.564 E7.1137
G1 X146.507 Y144.395 E7.1384
G1 X146.950 Y144.287 E7.1631
G1 X147.500 Y144.240 E7.1929
G1 X157.500 Y144.240 E7.7334
G1 X157.955 Y144.272 E7.7580
G1 X158.402 Y144.367 E7.7827
G1 X158.831 Y144.524 E7.8074
G1 X159.233 Y144.739 E7.8321
G1 X159.602 Y145.008 E7.8567
G1 X159.929 Y145.326 E7.8814
G1 X160.209 Y145.687 E7.9061
G1 X160.436 Y146.083 E7.9307
G1 X160.605 Y146.507 E7.9554
G1 X160.713 Y146.950 E7.9801
G1 X160.760 Y147.500 E8.0099
G1 X160.760 Y157.500 E8.5504
G1 X160.728 Y157.955 E8.5750
G1 X160.633 Y158.402 E8.5997
G1 X160.476 Y158.831 E8.6244
G1 X160.261 Y159.233 E8.6491
G1 X159.992 Y159.602 E8.6737
G1 X159.674 Y159.929 E8.6984
G1 X159.313 Y160.209 E8.7231
G1 X158.917 Y160.436 E8.7477
G1 X158.493 Y160.605 E8.7724
G1 X158.050 Y160.713 E8.7971
G1 X157.500 Y160.760 E8.8269
G1 X147.500 Y160.760 E9.3674
G1 X147.045 Y160.728 E9.3920
G1 X146.598 Y160.633 E9.4167
G1 X146.169 Y160.476 E9.4414
G1 X145.767 Y160.261 E9.4661
G1 X145.398 Y159.992 E9.4907
G1 X145.071 Y159.674 E9.5154
G1 X144.791 Y159.313 E9.5401
G1 X144.564 Y158.917 E9.5648
G1 X144.395 Y158.493 E9.5894
G1 X144.287 Y158.050 E9.6141
G1 X144.240 Y157.500 E9.6439
G1 X144.240 Y147.500 E10.1844
G1 X144.272 Y147.045 E10.2090
G1 X144.367 Y146.598 E10.2337
G1 X144.524 Y146.169 E10.2584
G1 X144.739 Y145.767 E10.2831
G1 X145.008 Y145.398 E10.3077
G1 X145.326 Y145.071 E10.3324
G1 F2400 E9.8324
G0 F9000 X148.280 Y148.280
;TYPE:WALL-INNER
;WIDTH:0.520
G1 F1500 E10.3324
G1 F900 X156.720 Y148.280 E10.7886
G1 X156.720 Y156.720 E11.2447
G1 X148.280 Y156.720 E11.7009
G1 X148.280 Y148.280 E12.1570
G1 F2400 E11.6570
G0 F9000 X147.860 Y147.770
G0 X147.760 Y147.760
;TYPE:WALL-OUTER
;WIDTH:0.520
G1 F1500 E12.1570
G1 F900 X157.240 Y147.760 E12.6694
G1 X157.240 Y157.240 E13.1818
G1 X147.760 Y157.240 E13.6942
G1 X147.760 Y147.760 E14.2065
G0 F3600 X147.960 Y147.760
G1 F2400 E13.7065
G0 F9000 X147.960 Y147.860
G0 X156.105 Y148.384
;TYPE:SOLID-FILL
;WIDTH:0.520
G1 F1500 E14.2065
G1 F900 X156.615 Y148.894 E14.2455
G1 F2400 E13.7455
G0 F9000 X156.615 Y149.629
G1 F1500 E14.2455
G1 F900 X155.370 Y148.384 E14.3407
G1 F2400 E13.8407
G0 F9000 X154.635 Y148.384
G1 F1500 E14.3407
G1 F900 X156.615 Y150.364 E14.4920
G1 F2400 E13.9920
G0 F9000 X156.615 Y151.100
G1 F1500 E14.4920
G1 F900 X153.899 Y148.384 E14.6996
G1 F2400 E14.1996
G0 F9000 X153.164 Y148.384
G1 F1500 E14.6996
G1 F900 X156.615 Y151.835 E14.9634
G1 F2400 E14.4634
G0 F9000 X156.615 Y152.571
G1 F1500 E14.9634
G1 F900 X152.428 Y148.384 E15.2834
G1 F2400 E14.7834
G0 F9000 X151.693 Y148.384
G1 F1500 E15.2834
G1 F900 X156.615 Y153.306 E15.6596
G1 F2400 E15.1596
G0 F9000 X156.615 Y154.041
G1 F1500 E15.6596
G1 F900 X150.958 Y148.384 E16.0920
G1 F2400 E15.5920
G0 F9000 X150.222 Y148.384
G1 F1500 E16.0920
G1 F900 X156.615 Y154.777 E16.5807
G1 F2400 E16.0807
G0 F9000 X156.615 Y155.512
G1 F1500 E16.5807
G1 F900 X149.487 Y148.384 E17.1255
G1 F2400 E16.6255
G0 F9000 X148.751 Y148.384
G1 F1500 E17.1255
G1 F900 X156.615 Y156.247 E17.7266
G0 F9000 X156.247 Y156.614
G1 F900 X148.383 Y148.751 E18.3276
G1 F2400 E17.8276
G0 F9000 X148.383 Y149.486
G1 F1500 E18.3276
G1 F900 X155.511 Y156.614 E18.8724
G1 F2400 E18.3724
G0 F9000 X154.776 Y156.614
G1 F1500 E18.8724
G1 F900 X148.383 Y150.222 E19.3610
G1 F2400 E18.8610
G0 F9000 X148.383 Y150.957
G1 F1500 E19.3610
G1 F900 X154.041 Y156.614 E19.7935
G1 F2400 E19.2935
G0 F9000 X153.305 Y156.614
G1 F1500 E19.7935
G1 F900 X148.383 Y151.692 E20.1697
G1 F2400 E19.6697
G0 F9000 X148.383 Y152.428
G1 F1500 E20.1697
G1 F900 X152.570 Y156.614 E20.4897
G1 F2400 E19.9897
G0 F9000 X151.834 Y156.614
G1 F1500 E20.4897
G1 F900 X148.383 Y153.163 E20.7535
G1 F2400 E20.2535
G0 F9000 X148.383 Y153.898
G1 F1500 E20.7535
G1 F900 X151.099 Y156.614 E20.9611
G1 F2400 E20.4611
G0 F9000 X150.364 Y156.614
G1 F1500 E20.9611
G1 F900 X148.383 Y154.634 E21.1124
G1 F2400 E20.6124
G0 F9000 X148.383 Y155.369
G1 F1500 E21.1124
G1 F900 X149.628 Y156.614 E21.2076
G1 F2400 E20.7076
G0 F9000 X148.893 Y156.614
G1 F1500 E21.2076
G1 F900 X148.383 Y156.105 E21.2465
;LAYER:1
;Z:0.350
;HEIGHT:0.100
M106 S128
G1 F2400 E20.7465
G0 F900 Z0.350
G0 F9000 X148.500 Y148.500
;TYPE:WALL-INNER
;WIDTH:0.400
G1 F1500 E21.2465
G1 F1275 X156.500 Y148.500 E21.3796
G1 X156.500 Y156.500 E21.5126
G1 X148.500 Y156.500 E21.6457
G1 X148.500 Y148.500 E21.7787
G0 F9000 X148.100 Y148.100
G1 F1275 X156.900 Y148.100 E21.9250
G1 X156.900 Y156.900 E22.0714
G1 X148.100 Y156.900 E22.2177
G1 X148.100 Y148.100 E22.3641
G1 F2400 E21.8641
G0 F9000 X147.700 Y147.700
;TYPE:WALL-OUTER
;WIDTH:0.400
G1 F1500 E22.3641
G1 F1200 X157.300 Y147.700 E22.5237
G1 X157.300 Y157.300 E22.6834
G1 X147.700 Y157.300 E22.8430
G1 X147.700 Y147.700 E23.0027
G0 F3600 X147.900 Y147.700
G1 F2400 E22.5027
G0 F9000 X147.900 Y147.800
G0 X149.336 Y148.779
;TYPE:SOLID-FILL
;WIDTH:0.400
G1 F1500 E23.0027
G1 F1275 X148.780 Y149.336 E23.0158
G1 X148.780 Y149.901 E23.0252
G1 X149.902 Y148.779 E23.0515
G1 X150.468 Y148.779 E23.0610
G1 X148.780 Y150.467 E23.1007
G1 X148.780 Y151.033 E23.1101
G1 X151.033 Y148.779 E23.1631
G1 X151.599 Y148.779 E23.1725
G1 X148.780 Y151.598 E23.2388
G1 X148.780 Y152.164 E23.2482
G1 X152.165 Y148.779 E23.3278
G1 X152.730 Y148.779 E23.3372
G1 X148.780 Y152.730 E23.4301
G1 X148.780 Y153.295 E23.4395
G1 X153.296 Y148.779 E23.5457
G1 X153.862 Y148.779 E23.5551
G1 X148.780 Y153.861 E23.6746
G1 X148.780 Y154.427 E23.6841
G1 X154.427 Y148.779 E23.8169
G1 X154.993 Y148.779 E23.8263
G1 X148.780 Y154.992 E23.9724
G1 X148.780 Y155.558 E23.9818
G1 X155.559 Y148.779 E24.1413
G1 X156.124 Y148.779 E24.1507
G1 X148.780 Y156.124 E24.3234
G1 X148.780 Y156.218 E24.3250
G1 X149.250 Y156.219 E24.3328
G1 X156.218 Y149.251 E24.4966
G1 X156.218 Y149.816 E24.5060
G1 X149.816 Y156.219 E24.6566
G1 X150.381 Y156.219 E24.6660
G1 X156.218 Y150.382 E24.8033
G1 X156.218 Y150.948 E24.8127
G1 X150.947 Y156.219 E24.9367
G1 X151.513 Y156.219 E24.9461
G1 X156.218 Y151.513 E25.0567
G1 X156.218 Y152.079 E25.0662
G1 X152.078 Y156.219 E25.1635
G1 X152.644 Y156.219 E25.1729
G1 X156.218 Y152.645 E25.2570
G1 X156.218 Y153.210 E25.2664
G1 X153.210 Y156.219 E25.3371
G1 X153.775 Y156.219 E25.3465
G1 X156.218 Y153.776 E25.4040
G1 X156.218 Y154.342 E25.4134
G1 X154.341 Y156.219 E25.4576
G1 X154.907 Y156.219 E25.4670
G1 X156.218 Y154.908 E25.4978
G1 X156.218 Y155.473 E25.5072
G1 X155.472 Y156.219 E25.5247
G1 X156.038 Y156.219 E25.5342
G1 X156.218 Y156.039 E25.5384
G1 F2400 E25.0384
G0 F9000 X149.194 Y148.638
;TYPE:SOLID-FILL
;WIDTH:0.400
G1 F1500 E25.5384
G1 F1425 X148.970 Y148.579 E25.5398
G1 X148.580 Y148.687 E25.5465
;LAYER:2
;Z:0.450
;HEIGHT:0.100
M106 S255
G0 F900 Z0.450
G0 F9000 X148.100 Y148.100
;TYPE:WALL-INNER
;WIDTH:0.400
G1 F1604 X156.900 Y148.100 E25.6928
G1 X156.900 Y156.900 E25.8392
G1 X148.100 Y156.900 E25.9855
G1 X148.100 Y148.100 E26.1319
G1 F2400 E25.6319
G0 F9000 X147.700 Y147.700
;TYPE:WALL-OUTER
;WIDTH:0.400
G1 F1500 E26.1319
G1 F1458 X157.300 Y147.700 E26.2915
G1 X157.300 Y157.300 E26.4512
G1 X147.700 Y157.300 E26.6108
G1 X147.700 Y147.700 E26.7705
G0 F3600 X147.900 Y147.700
G1 F2400 E26.2705
G0 F9000 X147.900 Y147.800
G0 X156.299 Y148.379
;TYPE:SOLID-FILL
;WIDTH:0.400
G1 F1500 E26.7705
G1 F1604 X156.619 Y148.700 E26.7780
G1 X156.619 Y149.265 E26.7874
G1 X155.733 Y148.379 E26.8082
G1 X155.168 Y148.379 E26.8176
G1 X156.619 Y149.831 E26.8518
G1 X156.619 Y150.397 E26.8612
G1 X154.602 Y148.379 E26.9086
G1 X154.036 Y148.379 E26.9180
G1 X156.619 Y150.963 E26.9788
G1 X156.619 Y151.528 E26.9882
G1 X153.471 Y148.379 E27.0622
G1 X152.905 Y148.379 E27.0717
G1 X156.619 Y152.094 E27.1590
G1 X156.619 Y152.660 E27.1684
G1 X152.339 Y148.379 E27.2691
G1 X151.774 Y148.379 E27.2785
G1 X156.619 Y153.225 E27.3925
G1 X156.619 Y153.791 E27.4019
G1 X151.208 Y148.379 E27.5291
G1 X150.642 Y148.379 E27.5386
G1 X156.619 Y154.357 E27.6791
G1 X156.619 Y154.922 E27.6885
G1 X150.077 Y148.379 E27.8424
G1 X149.511 Y148.379 E27.8518
G1 X156.619 Y155.488 E28.0190
G1 X156.619 Y156.054 E28.0284
G1 X148.945 Y148.379 E28.2089
G1 X148.379 Y148.379 E28.2183
G1 X156.619 Y156.619 E28.4121
G1 X156.053 Y156.619 E28.4215
G1 X148.379 Y148.945 E28.6020
G1 X148.379 Y149.511 E28.6114
G1 X155.487 Y156.619 E28.7786
G1 X154.922 Y156.619 E28.7880
G1 X148.379 Y150.077 E28.9418
G1 X148.379 Y150.642 E28.9512
G1 X154.356 Y156.619 E29.0918
G1 X153.790 Y156.619 E29.1012
G1 X148.379 Y151.208 E29.2285
G1 X148.379 Y151.774 E29.2379
G1 X153.225 Y156.619 E29.3519
G1 X152.659 Y156.619 E29.3613
G1 X148.379 Y152.339 E29.4619
G1 X148.379 Y152.905 E29.4713
G1 X152.093 Y156.619 E29.5587
G1 X151.528 Y156.619 E29.5681
G1 X148.379 Y153.471 E29.6421
G1 X148.379 Y154.036 E29.6515
G1 X150.962 Y156.619 E29.7123
G1 X150.396 Y156.619 E29.7217
G1 X148.379 Y154.602 E29.7691
G1 X148.379 Y155.168 E29.7785
G1 X149.830 Y156.619 E29.8127
G1 X149.265 Y156.619 E29.8221
G1 X148.379 Y155.733 E29.8429
G1 X148.379 Y156.299 E29.8523
G1 X148.699 Y156.619 E29.8598
G0 F9000 X148.557 Y156.759
;TYPE:SOLID-FILL
;WIDTH:0.400
G1 F1895 X148.616 Y156.819 E29.8612
G1 F2400 E29.3612
G0 F9000 X156.439 Y148.237
G1 F1500 E29.8612
G1 F1895 X156.382 Y148.179 E29.8626
;LAYER:3
;Z:0.550
;HEIGHT:0.100
G1 F2400 E29.3626
G0 F900 Z0.550
G0 F9000 X148.500 Y148.500
;TYPE:WALL-INNER
;WIDTH:0.400
G1 F1500 E29.8626
G1 F1602 X156.500 Y148.500 E29.9956
G1 X156.500 Y156.500 E30.1287
G1 X148.500 Y156.500 E30.2617
G1 X148.500 Y148.500 E30.3947
G0 F9000 X148.100 Y148.100
G1 F1602 X156.900 Y148.100 E30.5411
G1 X156.900 Y156.900 E30.6874
G1 X148.100 Y156.900 E30.8338
G1 X148.100 Y148.100 E30.9801
G1 F2400 E30.4801
G0 F9000 X147.700 Y147.700
;TYPE:WALL-OUTER
;WIDTH:0.400
G1 F1500 E30.9801
G1 F1424 X157.300 Y147.700 E31.1398
G1 X157.300 Y157.300 E31.2994
G1 X147.700 Y157.300 E31.4591
G1 X147.700 Y147.700 E31.6187
G0 F3600 X147.900 Y147.700
G1 F2400 E31.1187
G0 F9000 X147.900 Y147.800
G0 X149.336 Y148.779
;TYPE:SOLID-FILL
;WIDTH:0.400
G1 F1500 E31.6187
G1 F1602 X148.780 Y149.336 E31.6318
G1 X148.780 Y149.901 E31.6412
G1 X149.902 Y148.779 E31.6676
G1 X150.468 Y148.779 E31.6770
G1 X148.780 Y150.467 E31.7167
G1 X148.780 Y151.033 E31.7261
G1 X151.033 Y148.779 E31.7791
G1 X151.599 Y148.779 E31.7885
G1 X148.780 Y151.598 E31.8548
G1 X148.780 Y152.164 E31.8642
G1 X152.165 Y148.779 E31.9438
G1 X152.730 Y148.779 E31.9532
G1 X148.780 Y152.730 E32.0462
G1 X148.780 Y153.295 E32.0555
G1 X153.296 Y148.779 E32.1618
G1 X153.862 Y148.779 E32.1712
G1 X148.780 Y153.861 E32.2907
G1 X148.780 Y154.427 E32.3001
G1 X154.427 Y148.779 E32.4329
G1 X154.993 Y148.779 E32.4423
G1 X148.780 Y154.992 E32.5885
G1 X148.780 Y155.558 E32.5979
G1 X155.559 Y148.779 E32.7573
G1 X156.124 Y148.779 E32.7667
G1 X148.780 Y156.124 E32.9394
G1 X148.780 Y156.218 E32.9410
G1 X149.250 Y156.219 E32.9488
G1 X156.218 Y149.251 E33.1127
G1 X156.218 Y149.816 E33.1221
G1 X149.816 Y156.219 E33.2727
G1 X150.381 Y156.219 E33.2821
G1 X156.218 Y150.382 E33.4193
G1 X156.218 Y150.948 E33.4287
G1 X150.947 Y156.219 E33.5527
G1 X151.513 Y156.219 E33.5621
G1 X156.218 Y151.513 E33.6728
G1 X156.218 Y152.079 E33.6822
G1 X152.078 Y156.219 E33.7796
G1 X152.644 Y156.219 E33.7890
G1 X156.218 Y152.645 E33.8730
G1 X156.218 Y153.210 E33.8824
G1 X153.210 Y156.219 E33.9532
G1 X153.775 Y156.219 E33.9626
G1 X156.218 Y153.776 E34.0200
G1 X156.218 Y154.342 E34.0295
G1 X154.341 Y156.219 E34.0736
G1 X154.907 Y156.219 E34.0830
G1 X156.218 Y154.908 E34.1138
G1 X156.218 Y155.473 E34.1232
G1 X155.472 Y156.219 E34.1408
G1 X156.038 Y156.219 E34.1502
G1 X156.218 Y156.039 E34.1544
G1 F2400 E33.6544
G0 F9000 X149.194 Y148.638
;TYPE:SOLID-FILL
;WIDTH:0.400
G1 F1500 E34.1544
G1 F1958 X148.970 Y148.579 E34.1558
G1 X148.580 Y148.687 E34.1625
;LAYER:4
;Z:0.650
;HEIGHT:0.100
G0 F900 Z0.650
G0 F9000 X148.100 Y148.100
;TYPE:WALL-INNER
;WIDTH:0.400
G1 F1614 X156.900 Y148.100 E34.3089
G1 X156.900 Y156.900 E34.4552
G1 X148.100 Y156.900 E34.6016
G1 X148.100 Y148.100 E34.7479
G1 F2400 E34.2479
G0 F9000 X147.700 Y147.700
;TYPE:WALL-OUTER
;WIDTH:0.400
G1 F1500 E34.7479
G1 F1412 X157.300 Y147.700 E34.9076
G1 X157.300 Y157.300 E35.0672
G1 X147.700 Y157.300 E35.2269
G1 X147.700 Y147.700 E35.3865
G0 F3600 X147.900 Y147.700
G1 F2400 E34.8865
G0 F9000 X147.900 Y147.800
G0 X156.299 Y148.379
;TYPE:SOLID-FILL
;WIDTH:0.400
G1 F1500 E35.3865
G1 F1614 X156.619 Y148.700 E35.3940
G1 X156.619 Y149.265 E35.4034
G1 X155.733 Y148.379 E35.4243
G1 X155.168 Y148.379 E35.4337
G1 X156.619 Y149.831 E35.4678
