; generated by PrusaSlicer 2.2.0 on 2020-10-20 at 22:07:37 UTC

; 

; external perimeters extrusion width = 0.45mm
; perimeters extrusion width = 0.45mm
; infill extrusion width = 0.45mm
; solid infill extrusion width = 0.45mm
; top infill extrusion width = 0.40mm
; first layer extrusion width = 0.70mm

M201 X9000 Y9000 Z500 E10000 ; sets maximum accelerations, mm/sec^2
M203 X500 Y500 Z12 E120 ; sets maximum feedrates, mm/sec
M204 P1500 R1500 T1500 ; sets acceleration (P, T) and retract acceleration (R), mm/sec^2
M205 X10.00 Y10.00 Z0.20 E2.50 ; sets the jerk limits, mm/sec
M205 S0 T0 ; sets the minimum extruding and travel feed rate, mm/sec
M107
M104 S200 ; set temperature
G28 ; home all axes
G1 Z5 F5000 ; lift nozzle
M109 S200 ; set temperature and wait for it to be reached
G21 ; set units to millimeters
G90 ; use absolute coordinates
M82 ; use absolute distances for extrusion
G92 E0
; Filament gcode
G1 Z0.350 F7800.000
G1 E-2.00000 F2400.00000
G92 E0
G1 X90.147 Y90.491 F7800.000
G1 E2.00000 F2400.00000
G1 F1800.000
G1 X91.174 Y89.592 E2.12409
G1 X92.363 Y88.923 E2.24819
G1 X93.670 Y88.510 E2.37286
G1 X94.920 Y88.376 E2.48717
G1 X105.006 Y88.375 E3.40428
G1 X106.076 Y88.463 E3.50189
G1 X107.112 Y88.721 E3.59892
G1 X108.098 Y89.144 E3.69653
G1 X108.998 Y89.718 E3.79357
G1 X109.799 Y90.433 E3.89118
G1 X110.470 Y91.262 E3.98821
G1 X110.999 Y92.189 E4.08525
G1 X111.374 Y93.195 E4.18286
G1 X111.553 Y94.027 E4.26028
G1 X111.624 Y94.870 E4.33713
G1 X111.618 Y105.305 E5.28603
G1 X111.530 Y106.120 E5.36057
G1 X111.341 Y106.918 E5.43511
G1 X111.053 Y107.692 E5.51023
G1 X110.674 Y108.419 E5.58477
G1 X109.753 Y109.615 E5.72209
G1 X108.589 Y110.568 E5.85883
G1 X107.241 Y111.234 E5.99557
G1 X105.777 Y111.579 E6.13231
G1 X94.581 Y111.612 E7.15042
G1 X93.021 Y111.322 E7.29462
G1 X91.581 Y110.674 E7.43826
G1 X90.385 Y109.753 E7.57557
G1 X89.432 Y108.589 E7.71231
G1 X88.766 Y107.241 E7.84905
G1 X88.421 Y105.777 E7.98579
G1 X88.388 Y94.581 E9.00390
G1 X88.678 Y93.021 E9.14811
G1 X89.326 Y91.581 E9.29174
G1 X90.111 Y90.539 E9.41038
G1 E7.41038 F2400.00000
G92 E0
G1 X103.200 Y103.200 F7800.000
G1 E2.00000 F2400.00000
G1 F1800.000
G1 X96.800 Y103.200 E2.58199
G1 X96.800 Y96.800 E3.16398
G1 X103.200 Y96.800 E3.74597
G1 X103.200 Y103.140 E4.32250
G1 X103.825 Y103.825 F7800.000
G1 F1800.000
G1 X96.175 Y103.825 E5.01813
G1 X96.175 Y96.175 E5.71377
G1 X103.825 Y96.175 E6.40940
G1 X103.825 Y103.765 E7.09957
G1 X104.450 Y104.450 F7800.000
G1 F1800.000
G1 X95.550 Y104.450 E7.90885
G1 X95.550 Y95.550 E8.71812
G1 X104.450 Y95.550 E9.52739
G1 X104.450 Y104.390 E10.33121
G1 X104.064 Y104.346 F7800.000
G1 E8.33121 F2400.00000
G92 E0
G1 X96.987 Y101.670 F7800.000
G1 E2.00000 F2400.00000
G1 F1800.000
G1 X98.048 Y102.732 E2.14463
G1 X98.985 Y102.732 E2.23489
G1 X97.268 Y101.015 E2.46885
G1 X97.268 Y100.078 E2.55911
G1 X99.922 Y102.732 E2.92072
G1 X100.858 Y102.732 E3.01098
G1 X97.268 Y99.142 E3.50024
G1 X97.268 Y98.205 E3.59050
G1 X101.795 Y102.732 E4.20741
G1 X102.731 Y102.732 E4.29768
G1 X97.268 Y97.268 E5.04224
G1 X98.205 Y97.268 E5.13250
G1 X102.732 Y101.795 E5.74943
G1 X102.732 Y100.858 E5.83969
G1 X99.142 Y97.268 E6.32897
G1 X100.078 Y97.268 E6.41923
G1 X102.732 Y99.922 E6.78086
G1 X102.732 Y98.985 E6.87112
G1 X101.015 Y97.268 E7.10509
G1 X101.951 Y97.268 E7.19536
G1 X103.013 Y98.330 E7.34000
G1 Z0.650 F7800.000
G1 X104.004 Y104.004
G1 F900.000
G1 X95.996 Y104.004 E7.72514
G1 X95.996 Y95.996 E8.11027
G1 X104.004 Y95.996 E8.49541
G1 X104.004 Y103.944 E8.87766
G1 X104.389 Y104.389 F7800.000
G1 F900.000
G1 X95.611 Y104.389 E9.29988
G1 X95.611 Y95.611 E9.72211
G1 X104.389 Y95.611 E10.14434
G1 X104.389 Y104.329 E10.56368
G1 X104.775 Y104.775 F7800.000
G1 F900.000
G1 X95.225 Y104.775 E11.02301
G1 X95.225 Y95.225 E11.48233
G1 X104.775 Y95.225 E11.94165
G1 X104.775 Y104.715 E12.39809
G1 X104.389 Y104.671 F7800.000
G1 X96.112 Y96.911
G1 F1200.000
G1 X96.737 Y96.285 E12.44161
G1 X97.295 Y96.285 E12.46909
G1 X96.285 Y97.295 E12.53940
G1 X96.285 Y97.853 E12.56688
G1 X97.853 Y96.285 E12.67604
G1 X98.412 Y96.285 E12.70352
G1 X96.285 Y98.412 E12.85155
G1 X96.285 Y98.970 E12.87903
G1 X98.970 Y96.285 E13.06592
G1 X99.528 Y96.285 E13.09340
G1 X96.285 Y99.528 E13.31916
G1 X96.285 Y100.086 E13.34664
G1 X100.086 Y96.285 E13.61125
G1 X100.644 Y96.285 E13.63873
G1 X96.285 Y100.644 E13.94221
G1 X96.285 Y101.203 E13.96969
G1 X101.203 Y96.285 E14.31203
G1 X101.761 Y96.285 E14.33951
G1 X96.285 Y101.761 E14.72071
G1 X96.285 Y102.319 E14.74819
G1 X102.319 Y96.285 E15.16825
G1 X102.877 Y96.285 E15.19573
G1 X96.285 Y102.877 E15.65466
G1 X96.285 Y103.435 E15.68214
G1 X103.435 Y96.285 E16.17992
G1 X103.715 Y96.285 E16.19367
G1 X103.715 Y96.564 E16.20740
G1 X96.564 Y103.715 E16.70520
G1 X97.123 Y103.715 E16.73268
G1 X103.715 Y97.123 E17.19161
G1 X103.715 Y97.681 E17.21909
G1 X97.681 Y103.715 E17.63917
G1 X98.239 Y103.715 E17.66665
G1 X103.715 Y98.239 E18.04785
G1 X103.715 Y98.797 E18.07533
G1 X98.797 Y103.715 E18.41768
G1 X99.355 Y103.715 E18.44516
G1 X103.715 Y99.355 E18.74865
G1 X103.715 Y99.914 E18.77613
G1 X99.914 Y103.715 E19.04075
G1 X100.472 Y103.715 E19.06823
G1 X103.715 Y100.472 E19.29399
G1 X103.715 Y101.030 E19.32147
G1 X101.030 Y103.715 E19.50837
G1 X101.588 Y103.715 E19.53585
G1 X103.715 Y101.588 E19.68389
G1 X103.715 Y102.146 E19.71137
G1 X102.146 Y103.715 E19.82054
G1 X102.705 Y103.715 E19.84802
G1 X103.715 Y102.705 E19.91833
G1 X103.715 Y103.263 E19.94581
G1 X103.089 Y103.888 E19.98935
G1 Z0.950 F7800.000
G1 X104.004 Y104.004
G1 F900.000
G1 X95.996 Y104.004 E20.37448
G1 X95.996 Y95.996 E20.75962
G1 X104.004 Y95.996 E21.14475
G1 X104.004 Y103.944 E21.52700
G1 X104.389 Y104.389 F7800.000
G1 F900.000
G1 X95.611 Y104.389 E21.94923
G1 X95.611 Y95.611 E22.37146
G1 X104.389 Y95.611 E22.79368
G1 X104.389 Y104.329 E23.21303
G1 X104.775 Y104.775 F7800.000
G1 F900.000
G1 X95.225 Y104.775 E23.67235
G1 X95.225 Y95.225 E24.13167
G1 X104.775 Y95.225 E24.59099
G1 X104.775 Y104.715 E25.04743
G1 X104.389 Y104.671 F7800.000
G1 X96.911 Y103.888
G1 F1200.000
G1 X96.285 Y103.263 E25.09095
G1 X96.285 Y102.705 E25.11843
G1 X97.295 Y103.715 E25.18874
G1 X97.853 Y103.715 E25.21622
G1 X96.285 Y102.147 E25.32539
G1 X96.285 Y101.588 E25.35287
G1 X98.412 Y103.715 E25.50089
G1 X98.970 Y103.715 E25.52837
G1 X96.285 Y101.030 E25.71527
G1 X96.285 Y100.472 E25.74275
G1 X99.528 Y103.715 E25.96850
G1 X100.086 Y103.715 E25.99598
G1 X96.285 Y99.914 E26.26059
G1 X96.285 Y99.356 E26.28807
G1 X100.644 Y103.715 E26.59155
G1 X101.203 Y103.715 E26.61903
G1 X96.285 Y98.797 E26.96137
G1 X96.285 Y98.239 E26.98885
G1 X101.761 Y103.715 E27.37005
G1 X102.319 Y103.715 E27.39753
G1 X96.285 Y97.681 E27.81759
G1 X96.285 Y97.123 E27.84507
G1 X102.877 Y103.715 E28.30400
G1 X103.435 Y103.715 E28.33148
G1 X96.285 Y96.565 E28.82927
G1 X96.285 Y96.285 E28.84301
G1 X96.564 Y96.285 E28.85675
G1 X103.715 Y103.436 E29.35454
G1 X103.715 Y102.877 E29.38202
G1 X97.123 Y96.285 E29.84096
G1 X97.681 Y96.285 E29.86844
G1 X103.715 Y102.319 E30.28851
G1 X103.715 Y101.761 E30.31599
G1 X98.239 Y96.285 E30.69720
G1 X98.797 Y96.285 E30.72468
G1 X103.715 Y101.203 E31.06703
G1 X103.715 Y100.645 E31.09451
G1 X99.355 Y96.285 E31.39799
G1 X99.914 Y96.285 E31.42547
G1 X103.715 Y100.086 E31.69009
G1 X103.715 Y99.528 E31.71757
G1 X100.472 Y96.285 E31.94334
G1 X101.030 Y96.285 E31.97081
G1 X103.715 Y98.970 E32.15771
G1 X103.715 Y98.412 E32.18519
G1 X101.588 Y96.285 E32.33323
G1 X102.146 Y96.285 E32.36071
G1 X103.715 Y97.854 E32.46989
G1 X103.715 Y97.295 E32.49737
G1 X102.705 Y96.285 E32.56768
G1 X103.263 Y96.285 E32.59516
G1 X103.888 Y96.911 E32.63869
M106 S224.4
G1 Z1.250 F7800.000
G1 X104.004 Y104.004
G1 F900.000
G1 X95.996 Y104.004 E33.02383
G1 X95.996 Y95.996 E33.40896
G1 X104.004 Y95.996 E33.79409
G1 X104.004 Y103.944 E34.17634
G1 X104.389 Y104.389 F7800.000
G1 F900.000
G1 X95.611 Y104.389 E34.59857
G1 X95.611 Y95.611 E35.02080
G1 X104.389 Y95.611 E35.44303
G1 X104.389 Y104.329 E35.86237
G1 X104.775 Y104.775 F7800.000
G1 F900.000
G1 X95.225 Y104.775 E36.32169
G1 X95.225 Y95.225 E36.78102
G1 X104.775 Y95.225 E37.24034
G1 X104.775 Y104.715 E37.69677
G1 X104.389 Y104.671 F7800.000
G1 X96.112 Y96.911
G1 F1200.000
G1 X96.737 Y96.285 E37.74030
G1 X97.295 Y96.285 E37.76778
G1 X96.285 Y97.295 E37.83808
G1 X96.285 Y97.853 E37.86556
G1 X97.853 Y96.285 E37.97473
G1 X98.412 Y96.285 E38.00221
G1 X96.285 Y98.412 E38.15024
G1 X96.285 Y98.970 E38.17772
G1 X98.970 Y96.285 E38.36461
G1 X99.528 Y96.285 E38.39209
G1 X96.285 Y99.528 E38.61784
G1 X96.285 Y100.086 E38.64532
G1 X100.086 Y96.285 E38.90993
G1 X100.644 Y96.285 E38.93741
G1 X96.285 Y100.644 E39.24089
G1 X96.285 Y101.203 E39.26837
G1 X101.203 Y96.285 E39.61070
G1 X101.761 Y96.285 E39.63818
G1 X96.285 Y101.761 E40.01938
G1 X96.285 Y102.319 E40.04686
G1 X102.319 Y96.285 E40.46692
G1 X102.877 Y96.285 E40.49440
G1 X96.285 Y102.877 E40.95333
G1 X96.285 Y103.435 E40.98081
G1 X103.435 Y96.285 E41.47859
G1 X103.715 Y96.285 E41.49234
G1 X103.715 Y96.564 E41.50607
G1 X96.564 Y103.715 E42.00387
G1 X97.123 Y103.715 E42.03135
G1 X103.715 Y97.123 E42.49028
G1 X103.715 Y97.681 E42.51776
G1 X97.681 Y103.715 E42.93783
G1 X98.239 Y103.715 E42.96531
G1 X103.715 Y98.239 E43.34651
G1 X103.715 Y98.797 E43.37399
G1 X98.797 Y103.715 E43.71634
G1 X99.355 Y103.715 E43.74382
G1 X103.715 Y99.355 E44.04730
G1 X103.715 Y99.914 E44.07478
G1 X99.914 Y103.715 E44.33940
G1 X100.472 Y103.715 E44.36688
G1 X103.715 Y100.472 E44.59264
G1 X103.715 Y101.030 E44.62012
G1 X101.030 Y103.715 E44.80702
G1 X101.588 Y103.715 E44.83450
G1 X103.715 Y101.588 E44.98254
G1 X103.715 Y102.146 E45.01002
G1 X102.146 Y103.715 E45.11919
G1 X102.705 Y103.715 E45.14667
G1 X103.715 Y102.705 E45.21698
G1 X103.715 Y103.263 E45.24446
G1 X103.089 Y103.888 E45.28799
G1 Z1.550 F7800.000
G1 X104.004 Y104.004
G1 F900.000
G1 X95.996 Y104.004 E45.67313
G1 X95.996 Y95.996 E46.05826
G1 X104.004 Y95.996 E46.44340
G1 X104.004 Y103.944 E46.82565
G1 X104.389 Y104.389 F7800.000
G1 F900.000
G1 X95.611 Y104.389 E47.24787
G1 X95.611 Y95.611 E47.67010
G1 X104.389 Y95.611 E48.09233
G1 X104.389 Y104.329 E48.51167
G1 X104.775 Y104.775 F7800.000
G1 F900.000
G1 X95.225 Y104.775 E48.97100
G1 X95.225 Y95.225 E49.43032
G1 X104.775 Y95.225 E49.88964
G1 X104.775 Y104.715 E50.34608
G1 X104.389 Y104.671 F7800.000
G1 X96.911 Y103.888
G1 F1200.000
G1 X96.285 Y103.263 E50.38960
G1 X96.285 Y102.705 E50.41708
G1 X97.295 Y103.715 E50.48739
G1 X97.853 Y103.715 E50.51487
G1 X96.285 Y102.147 E50.62403
G1 X96.285 Y101.588 E50.65151
G1 X98.412 Y103.715 E50.79954
G1 X98.970 Y103.715 E50.82702
G1 X96.285 Y101.030 E51.01391
G1 X96.285 Y100.472 E51.04139
G1 X99.528 Y103.715 E51.26714
G1 X100.086 Y103.715 E51.29462
G1 X96.285 Y99.914 E51.55923
G1 X96.285 Y99.356 E51.58671
G1 X100.644 Y103.715 E51.89019
G1 X101.203 Y103.715 E51.91767
G1 X96.285 Y98.797 E52.26001
G1 X96.285 Y98.239 E52.28749
G1 X101.761 Y103.715 E52.66869
G1 X102.319 Y103.715 E52.69617
G1 X96.285 Y97.681 E53.11623
G1 X96.285 Y97.123 E53.14371
G1 X102.877 Y103.715 E53.60263
G1 X103.435 Y103.715 E53.63011
G1 X96.285 Y96.565 E54.12790
G1 X96.285 Y96.285 E54.14164
G1 X96.564 Y96.285 E54.15537
G1 X103.715 Y103.436 E54.65317
G1 X103.715 Y102.877 E54.68065
G1 X97.123 Y96.285 E55.13958
G1 X97.681 Y96.285 E55.16706
G1 X103.715 Y102.319 E55.58713
G1 X103.715 Y101.761 E55.61461
G1 X98.239 Y96.285 E55.99582
G1 X98.797 Y96.285 E56.02330
G1 X103.715 Y101.203 E56.36564
G1 X103.715 Y100.645 E56.39312
G1 X99.355 Y96.285 E56.69660
G1 X99.914 Y96.285 E56.72408
G1 X103.715 Y100.086 E56.98871
G1 X103.715 Y99.528 E57.01619
G1 X100.472 Y96.285 E57.24195
G1 X101.030 Y96.285 E57.26943
G1 X103.715 Y98.970 E57.45632
G1 X103.715 Y98.412 E57.48380
G1 X101.588 Y96.285 E57.63184
G1 X102.146 Y96.285 E57.65932
G1 X103.715 Y97.854 E57.76849
G1 X103.715 Y97.295 E57.79597
G1 X102.705 Y96.285 E57.86629
G1 X103.263 Y96.285 E57.89377
G1 X103.888 Y96.911 E57.93730
G1 Z1.850 F7800.000
G1 X104.004 Y104.004
G1 F900.000
G1 X95.996 Y104.004 E58.32243
G1 X95.996 Y95.996 E58.70757
G1 X104.004 Y95.996 E59.09270
G1 X104.004 Y103.944 E59.47495
G1 X104.389 Y104.389 F7800.000
G1 F900.000
G1 X95.611 Y104.389 E59.89718
G1 X95.611 Y95.611 E60.31941
G1 X104.389 Y95.611 E60.74163
G1 X104.389 Y104.329 E61.16098
G1 X104.775 Y104.775 F7800.000
G1 F900.000
G1 X95.225 Y104.775 E61.62030
G1 X95.225 Y95.225 E62.07962
G1 X104.775 Y95.225 E62.53894
G1 X104.775 Y104.715 E62.99538
G1 X104.389 Y104.671 F7800.000
G1 X96.112 Y96.911
G1 F1200.000
G1 X96.737 Y96.285 E63.03891
G1 X97.295 Y96.285 E63.06638
G1 X96.285 Y97.295 E63.13669
G1 X96.285 Y97.853 E63.16417
G1 X97.853 Y96.285 E63.27334
G1 X98.412 Y96.285 E63.30081
G1 X96.285 Y98.412 E63.44884
G1 X96.285 Y98.970 E63.47632
G1 X98.970 Y96.285 E63.66321
G1 X99.528 Y96.285 E63.69069
G1 X96.285 Y99.528 E63.91644
G1 X96.285 Y100.086 E63.94392
G1 X100.086 Y96.285 E64.20854
G1 X100.644 Y96.285 E64.23602
G1 X96.285 Y100.644 E64.53949
G1 X96.285 Y101.203 E64.56697
G1 X101.203 Y96.285 E64.90931
G1 X101.761 Y96.285 E64.93679
G1 X96.285 Y101.761 E65.31799
G1 X96.285 Y102.319 E65.34547
G1 X102.319 Y96.285 E65.76553
G1 X102.877 Y96.285 E65.79301
G1 X96.285 Y102.877 E66.25193
G1 X96.285 Y103.435 E66.27941
G1 X103.435 Y96.285 E66.77720
G1 X103.715 Y96.285 E66.79094
G1 X103.715 Y96.564 E66.80468
G1 X96.564 Y103.715 E67.30247
G1 X97.123 Y103.715 E67.32995
G1 X103.715 Y97.123 E67.78888
G1 X103.715 Y97.681 E67.81636
G1 X97.681 Y103.715 E68.23643
G1 X98.239 Y103.715 E68.26391
G1 X103.715 Y98.239 E68.64512
G1 X103.715 Y98.797 E68.67260
G1 X98.797 Y103.715 E69.01494
G1 X99.355 Y103.715 E69.04242
G1 X103.715 Y99.355 E69.34591
G1 X103.715 Y99.914 E69.37339
G1 X99.914 Y103.715 E69.63801
G1 X100.472 Y103.715 E69.66549
G1 X103.715 Y100.472 E69.89125
G1 X103.715 Y101.030 E69.91873
G1 X101.030 Y103.715 E70.10563
G1 X101.588 Y103.715 E70.13311
G1 X103.715 Y101.588 E70.28114
G1 X103.715 Y102.146 E70.30862
G1 X102.146 Y103.715 E70.41780
G1 X102.705 Y103.715 E70.44528
G1 X103.715 Y102.705 E70.51559
G1 X103.715 Y103.263 E70.54307
G1 X103.089 Y103.888 E70.58660
G1 Z2.150 F7800.000
G1 X104.004 Y104.004
G1 F900.000
G1 X95.996 Y104.004 E70.97173
G1 X95.996 Y95.996 E71.35687
G1 X104.004 Y95.996 E71.74200
G1 X104.004 Y103.944 E72.12425
G1 X104.389 Y104.389 F7800.000
G1 F900.000
G1 X95.611 Y104.389 E72.54648
G1 X95.611 Y95.611 E72.96871
G1 X104.389 Y95.611 E73.39094
G1 X104.389 Y104.329 E73.81028
G1 X104.775 Y104.775 F7800.000
G1 F900.000
G1 X95.225 Y104.775 E74.26960
G1 X95.225 Y95.225 E74.72893
G1 X104.775 Y95.225 E75.18825
G1 X104.775 Y104.715 E75.64468
G1 X104.389 Y104.671 F7800.000
G1 X96.911 Y103.888
G1 F1200.000
G1 X96.285 Y103.263 E75.68821
G1 X96.285 Y102.705 E75.71569
G1 X97.295 Y103.715 E75.78599
G1 X97.853 Y103.715 E75.81347
G1 X96.285 Y102.147 E75.92264
G1 X96.285 Y101.588 E75.95012
G1 X98.412 Y103.715 E76.09815
G1 X98.970 Y103.715 E76.12563
G1 X96.285 Y101.030 E76.31252
G1 X96.285 Y100.472 E76.34000
G1 X99.528 Y103.715 E76.56575
G1 X100.086 Y103.715 E76.59323
G1 X96.285 Y99.914 E76.85784
G1 X96.285 Y99.356 E76.88532
G1 X100.644 Y103.715 E77.18880
G1 X101.203 Y103.715 E77.21628
G1 X96.285 Y98.797 E77.55861
G1 X96.285 Y98.239 E77.58609
G1 X101.761 Y103.715 E77.96729
G1 X102.319 Y103.715 E77.99477
G1 X96.285 Y97.681 E78.41483
G1 X96.285 Y97.123 E78.44231
G1 X102.877 Y103.715 E78.90124
G1 X103.435 Y103.715 E78.92872
G1 X96.285 Y96.565 E79.42650
G1 X96.285 Y96.285 E79.44024
G1 X96.564 Y96.285 E79.45398
G1 X103.715 Y103.436 E79.95177
G1 X103.715 Y102.877 E79.97925
G1 X97.123 Y96.285 E80.43819
G1 X97.681 Y96.285 E80.46567
G1 X103.715 Y102.319 E80.88573
G1 X103.715 Y101.761 E80.91321
G1 X98.239 Y96.285 E81.29442
G1 X98.797 Y96.285 E81.32190
G1 X103.715 Y101.203 E81.66425
G1 X103.715 Y100.645 E81.69173
G1 X99.355 Y96.285 E81.99521
G1 X99.914 Y96.285 E82.02269
G1 X103.715 Y100.086 E82.28731
G1 X103.715 Y99.528 E82.31479
G1 X100.472 Y96.285 E82.54055
G1 X101.030 Y96.285 E82.56803
G1 X103.715 Y98.970 E82.75493
G1 X103.715 Y98.412 E82.78241
G1 X101.588 Y96.285 E82.93045
G1 X102.146 Y96.285 E82.95793
G1 X103.715 Y97.854 E83.06710
G1 X103.715 Y97.295 E83.09458
